X:1
T:Title
%%score { 1 | 2 }
L:1/8
M:6/8
K:Bb
V:1 treble nm="Grand Piano"
V:2 bass 
V:1
 z3 z2[Q:1/4=87] [DF] | [DF]>[EG][DF] [A,EF]>[A,EG][A,EF] | [B,F] [B,FB]2- [B,FB]2 [Gc] | %3
 d>cB A>GA |[M:5/8] [DB]-[DB]- [DB]3 |[M:1/8] [DF] | %6
[M:3/4] [DF]>[EG] [DF][A,EF]- [A,EF]/[A,EG]/[A,EF] | [B,F][B,FB]- [B,FB]3 [Gc] | d>c BA- A/G/A | %9
[M:5/8] [DB]-[DB]- [DB]3 |[M:1/8] [DB]/[Ec]/ |[M:3/4] [Fd]>[Ec] [DB][DF]- [DF]/[DB]/[Ec] | %12
 BA- A3 A/B/ | c>A Bc- c/B/c |[M:5/8] [Fd]-[Fd]- [Fd]3 |[M:1/8] [DF] | %16
[M:3/4] [DF]>[EG] [DF][A,EF]- [A,EF]/[A,EG]/[A,EF] | [B,F][B,FB]- [B,FB]3 [Gc] | d>c BA- A/G/A | %19
[M:5/8] [DB]-[DB]- [DB]3 |[M:1/8] [DF] |[M:3/4] [DF]>[EG] [DF][A,EF]- [A,EF]/[A,EG]/[A,EF] | %22
 [B,F][B,FB]- [B,FB]3 [Gc] | d>c BA- A/G/A |[M:5/8] [DB]-[DB]- [DB]3 |[M:1/8] [DF] | %26
[M:3/4] [DF]>[EG] [DF][A,EF]- [A,EF]/[A,EG]/[A,EF] | [B,F][B,FB]- [B,FB]3 [Gc] | d>c BA- A/G/A | %29
[M:5/8] [DB]-[DB]- [DB]3 |[M:1/8] [DF] |[M:3/4] [DF]>[EG] [DF][A,EF]- [A,EF]/[A,EG]/[A,EF] | %32
 [B,F][B,FB]- [B,FB]3 [Gc] | d>c BA- A/G/A |[M:5/8] [DB]-[DB]- [DB]3 |[M:1/8] [DF] | %36
[M:3/4] [DF]>[EG] [DF][A,EF]- [A,EF]/[A,EG]/[A,EF] | [B,F][B,FB]- [B,FB]3 [Gc] | d>c BA- A/G/A | %39
[M:5/8] [DB]-[DB]- [DB]3 |[M:1/8] [DF] |[M:3/4] [DF]>[EG] [DF][A,EF]- [A,EF]/[A,EG]/[A,EF] | %42
 [B,F][B,FB]- [B,FB]3 [Gc] | d>c BA- A/G/A |[M:5/8] [DB]-[DB]- [DB]3 |[M:1/8] [DF] | %46
[M:3/4] [DF]>[EG] [DF][A,EF]- [A,EF]/[A,EG]/[A,EF] | [B,F][B,FB]- [B,FB]3 [Gc] | d>c BA- A/G/A | %49
[M:5/8] [DB]-[DB]- [DB]3 |[M:1/8] [DF] |[M:3/4] [DF]>[EG] [DF][A,EF]- [A,EF]/[A,EG]/[A,EF] | %52
 [B,F][B,FB]- [B,FB]3 [Gc] | d>c BA- A/G/A |[M:5/8] [DB]-[DB]- [DB]3 |[M:1/8] [DF] | %56
[M:3/4] [DF]>[EG] [DF][A,EF]- [A,EF]/[A,EG]/[A,EF] | [B,F][B,FB]- [B,FB]3 [Gc] | d>c BA- A/G/A | %59
[M:5/8] [DB]-[DB]- [DB]3 |[M:1/8] [DF] |[M:3/4] [DF]>[EG] [DF][A,EF]- [A,EF]/[A,EG]/[A,EF] | %62
 [B,F][B,FB]- [B,FB]3 [Gc] | d>c BA- A/G/A |[M:5/8] [DB]-[DB]- [DB]3 |[M:1/8] [DF] | %66
[M:3/4] [DF]>[EG] [DF][A,EF]- [A,EF]/[A,EG]/[A,EF] | [B,F][B,FB]- [B,FB]3 [Gc] | d>c BA- A/G/A | %69
[M:5/8] [DB]-[DB]- [DB]3 |[M:1/8] [DF] |[M:3/4] [DF]>[EG] [DF][A,EF]- [A,EF]/[A,EG]/[A,EF] | %72
 [B,F][B,FB]- [B,FB]3 [Gc] | d>c BA- A/G/A |[M:5/8] [DB]-[DB]- [DB]3 |[M:1/8] [DF] | %76
[M:3/4] [DF]>[EG] [DF][A,EF]- [A,EF]/[A,EG]/[A,EF] | [B,F][B,FB]- [B,FB]3 [Gc] | d>c BA- A/G/A | %79
[M:5/8] [DB]-[DB]- [DB]3 |[M:1/8] [DF] |[M:3/4] [DF]>[EG] [DF][A,EF]- [A,EF]/[A,EG]/[A,EF] | %82
 [B,F][B,FB]- [B,FB]3 [Gc] | d>c BA- A/G/A |[M:5/8] [DB]-[DB]- [DB]3 |[M:1/8] [DF] | %86
[M:3/4] [DF]>[EG] [DF][A,EF]- [A,EF]/[A,EG]/[A,EF] | [B,F][B,FB]- [B,FB]3 [Gc] | d>c BA- A/G/A | %89
[M:5/8] [DB]-[DB]- [DB]3 |[M:1/8] [DF] |[M:3/4] [DF]>[EG] [DF][A,EF]- [A,EF]/[A,EG]/[A,EF] | %92
 [B,F][B,FB]- [B,FB]3 [Gc] | d>c BA- A/G/A |[M:5/8] [DB]-[DB]- [DB]3 |[M:1/8] [DF] | %96
[M:3/4] [DF]>[EG] [DF][A,EF]- [A,EF]/[A,EG]/[A,EF] | [B,F][B,FB]- [B,FB]3 [Gc] | d>c BA- A/G/A | %99
[M:5/8] [DB]-[DB]- [DB]3 |[M:1/8] [DF] |[M:3/4] [DF]>[EG] [DF][A,EF]- [A,EF]/[A,EG]/[A,EF] | %102
 [B,F][B,FB]- [B,FB]3 [Gc] | d>c BA- A/G/A |[M:5/8] [DB]-[DB]- [DB]3 |[M:1/8] [DF] | %106
[M:3/4] [DF]>[EG] [DF][A,EF]- [A,EF]/[A,EG]/[A,EF] | [B,F][B,FB]- [B,FB]3 [Gc] | d>c BA- A/G/A | %109
[M:5/8] [DB]-[DB]- [DB]3 |[M:1/8] [DF] |[M:3/4] [DF]>[EG] [DF][A,EF]- [A,EF]/[A,EG]/[A,EF] | %112
 [B,F][B,FB]- [B,FB]3 [Gc] | d>c BA- A/G/A |[M:5/8] [DB]-[DB]- [DB]3 |[M:1/8] [DF] | %116
[M:3/4] [DF]>[EG] [DF][A,EF]- [A,EF]/[A,EG]/[A,EF] | [B,F][B,FB]- [B,FB]3 [Gc] | d>c BA- A/G/A | %119
[M:5/8] [DB]-[DB]- [DB]3 |[M:1/8] [DF] |[M:3/4] [DF]>[EG] [DF][A,EF]- [A,EF]/[A,EG]/[A,EF] | %122
 [B,F][B,FB]- [B,FB]3 [Gc] | d>c BA- A/G/A |[M:5/8] [DB]-[DB]- [DB]3 |[M:1/8] [DF] | %126
[M:3/4] [DF]>[EG] [DF][A,EF]- [A,EF]/[A,EG]/[A,EF] | [B,F][B,FB]- [B,FB]3 [Gc] | d>c BA- A/G/A | %129
[M:5/8] [DB]-[DB]- [DB]3 |[M:1/8] [DF] |[M:3/4] [DF]>[EG] [DF][A,EF]- [A,EF]/[A,EG]/[A,EF] | %132
 [B,F][B,FB]- [B,FB]3 [Gc] | d>c BA- A/G/A |[M:5/8] [DB]-[DB]- [DB]3 |[M:1/8] [DF] | %136
[M:3/4] [DF]>[EG] [DF][A,EF]- [A,EF]/[A,EG]/[A,EF] | [B,F][B,FB]- [B,FB]3 [Gc] | d>c BA- A/G/A | %139
[M:5/8] [DB]-[DB]- [DB]3 |[M:1/8] [DF] |[M:3/4] [DF]>[EG] [DF][A,EF]- [A,EF]/[A,EG]/[A,EF] | %142
 [B,F][B,FB]- [B,FB]3 [Gc] | d>c BA- A/G/A |[M:5/8] [DB]-[DB]- [DB]3 |[M:1/8] [DF] | %146
[M:3/4] [DF]>[EG] [DF][A,EF]- [A,EF]/[A,EG]/[A,EF] | [B,F][B,FB]- [B,FB]3 [Gc] | d>c BA- A/G/A | %149
[M:5/8] [DB]-[DB]- [DB]3 |[M:1/8] [DF] |[M:3/4] [DF]>[EG] [DF][A,EF]- [A,EF]/[A,EG]/[A,EF] | %152
 [B,F][B,FB]- [B,FB]3 [Gc] | d>c BA- A/G/A |[M:5/8] [DB]-[DB]- [DB]3 |[M:1/8] [DF] | %156
[M:3/4] [DF]>[EG] [DF][A,EF]- [A,EF]/[A,EG]/[A,EF] | [B,F][B,FB]- [B,FB]3 [Gc] | d>c BA- A/G/A | %159
[M:5/8] [DB]-[DB]- [DB]3 |[M:1/8] [DF] |[M:3/4] [DF]>[EG] [DF][A,EF]- [A,EF]/[A,EG]/[A,EF] | %162
 [B,F][B,FB]- [B,FB]3 [Gc] | d>c BA- A/G/A |[M:5/8] [DB]-[DB]- [DB]3 |[M:1/8] [DF] | %166
[M:3/4] [DF]>[EG] [DF][A,EF]- [A,EF]/[A,EG]/[A,EF] | [B,F][B,FB]- [B,FB]3 [Gc] | d>c BA- A/G/A | %169
[M:5/8] [DB]-[DB]- [DB]3 |[M:1/8] [DF] |[M:3/4] [DF]>[EG] [DF][A,EF]- [A,EF]/[A,EG]/[A,EF] | %172
 [B,F][B,FB]- [B,FB]3 [Gc] | d>c BA- A/G/A |[M:5/8] [DB]-[DB]- [DB]3 |[M:1/8] [DF] | %176
[M:3/4] [DF]>[EG] [DF][A,EF]- [A,EF]/[A,EG]/[A,EF] | [B,F][B,FB]- [B,FB]3 [Gc] | d>c BA- A/G/A | %179
[M:5/8] [DB]-[DB]- [DB]3 |[M:1/8] [DF] |[M:3/4] [DF]>[EG] [DF][A,EF]- [A,EF]/[A,EG]/[A,EF] | %182
 [B,F][B,FB]- [B,FB]3 [Gc] | d>c BA- A/G/A |[M:5/8] [DB]-[DB]- [DB]3 |[M:1/8] [DF] | %186
[M:3/4] [DF]>[EG] [DF][A,EF]- [A,EF]/[A,EG]/[A,EF] | [B,F][B,FB]- [B,FB]3 [Gc] | d>c BA- A/G/A | %189
[M:5/8] [DB]-[DB]- [DB]3 |[M:1/8] [DF] |[M:3/4] [DF]>[EG] [DF][A,EF]- [A,EF]/[A,EG]/[A,EF] | %192
 [B,F][B,FB]- [B,FB]3 [Gc] | d>c BA- A/G/A |[M:5/8] [DB]-[DB]- [DB]3 |[M:1/8] [DF] | %196
[M:3/4] [DF]>[EG] [DF][A,EF]- [A,EF]/[A,EG]/[A,EF] | [B,F][B,FB]- [B,FB]3 [Gc] | d>c BA- A/G/A | %199
[M:5/8] [DB]-[DB]- [DB]3 |[M:1/8] [DF] |[M:3/4] [DF]>[EG] [DF][A,EF]- [A,EF]/[A,EG]/[A,EF] | %202
 [B,F][B,FB]- [B,FB]3 [Gc] | d>c BA- A/G/A |[M:5/8] [DB]-[DB]- [DB]3 |[M:1/8] [DF] | %206
[M:3/4] [DF]>[EG] [DF][A,EF]- [A,EF]/[A,EG]/[A,EF] | [B,F][B,FB]- [B,FB]3 [Gc] | d>c BA- A/G/A | %209
[M:5/8] [DB]-[DB]- [DB]3 |[M:1/8] [DF] |[M:3/4] [DF]>[EG] [DF][A,EF]- [A,EF]/[A,EG]/[A,EF] | %212
 [B,F][B,FB]- [B,FB]3 [Gc] | d>c BA- A/G/A |[M:5/8] [DB]-[DB]- [DB]3 |[M:1/8] [DF] | %216
[M:3/4] [DF]>[EG] [DF][A,EF]- [A,EF]/[A,EG]/[A,EF] | [B,F][B,FB]- [B,FB]3 [Gc] | d>c BA- A/G/A | %219
[M:5/8] [DB]-[DB]- [DB]3 |[M:1/8] [DF] |[M:3/4] [DF]>[EG] [DF][A,EF]- [A,EF]/[A,EG]/[A,EF] | %222
 [B,F][B,FB]- [B,FB]3 [Gc] | d>c BA- A/G/A |[M:5/8] [DB]-[DB]- [DB]3 |[M:1/8] [DF] | %226
[M:3/4] [DF]>[EG] [DF][A,EF]- [A,EF]/[A,EG]/[A,EF] | [B,F][B,FB]- [B,FB]3 [Gc] | d>c BA- A/G/A | %229
[M:5/8] [DB]-[DB]- [DB]3 |[M:1/8] [DF] |[M:3/4] [DF]>[EG] [DF][A,EF]- [A,EF]/[A,EG]/[A,EF] | %232
 [B,F][B,FB]- [B,FB]3 [Gc] | d>c BA- A/G/A |[M:5/8] [DB]-[DB]- [DB]3 |[M:1/8] [DF] | %236
[M:3/4] [DF]>[EG] [DF][A,EF]- [A,EF]/[A,EG]/[A,EF] | [B,F][B,FB]- [B,FB]3 [Gc] | d>c BA- A/G/A | %239
[M:5/8] [DB]-[DB]- [DB]3 |[M:1/8] [DF] |[M:3/4] [DF]>[EG] [DF][A,EF]- [A,EF]/[A,EG]/[A,EF] | %242
 [B,F][B,FB]- [B,FB]3 [Gc] | d>c BA- A/G/A |[M:5/8] [DB]-[DB]- [DB]3 |[M:1/8] [DF] | %246
[M:3/4] [DF]>[EG] [DF][A,EF]- [A,EF]/[A,EG]/[A,EF] | [B,F][B,FB]- [B,FB]3 [Gc] | d>c BA- A/G/A | %249
[M:5/8] [DB]-[DB]- [DB]3 |[M:1/8] [DF] |[M:3/4] [DF]>[EG] [DF][A,EF]- [A,EF]/[A,EG]/[A,EF] | %252
 [B,F][B,FB]- [B,FB]3 [Gc] | d>c BA- A/G/A |[M:5/8] [DB]-[DB]- [DB]3 |[M:1/8] [DF] | %256
[M:3/4] [DF]>[EG] [DF][A,EF]- [A,EF]/[A,EG]/[A,EF] | [B,F][B,FB]- [B,FB]3 [Gc] | d>c BA- A/G/A | %259
[M:5/8] [DB]-[DB]- [DB]3 |[M:1/8] [DF] |[M:3/4] [DF]>[EG] [DF][A,EF]- [A,EF]/[A,EG]/[A,EF] | %262
 [B,F][B,FB]- [B,FB]3 [Gc] | d>c BA- A/G/A |[M:5/8] [DB]-[DB]- [DB]3 |[M:1/8] [DF] | %266
[M:3/4] [DF]>[EG] [DF][A,EF]- [A,EF]/[A,EG]/[A,EF] | [B,F][B,FB]- [B,FB]3 [Gc] | d>c BA- A/G/A | %269
[M:5/8] [DB]-[DB]- [DB]3 |[M:1/8] [DF] |[M:3/4] [DF]>[EG] [DF][A,EF]- [A,EF]/[A,EG]/[A,EF] | %272
 [B,F][B,FB]- [B,FB]3 [Gc] | d>c BA- A/G/A |[M:5/8] [DB]-[DB]- [DB]3 |[M:1/8] [DF] | %276
[M:3/4] [DF]>[EG] [DF][A,EF]- [A,EF]/[A,EG]/[A,EF] | [B,F][B,FB]- [B,FB]3 [Gc] | d>c BA- A/G/A | %279
[M:5/8] [DB]-[DB]- [DB]3 |[M:1/8] [DF] |[M:3/4] [DF]>[EG] [DF][A,EF]- [A,EF]/[A,EG]/[A,EF] | %282
 [B,F][B,FB]- [B,FB]3 [Gc] | d>c BA- A/G/A |[M:5/8] [DB]-[DB]- [DB]3 |[M:1/8] [DF] | %286
[M:3/4] [DF]>[EG] [DF][A,EF]- [A,EF]/[A,EG]/[A,EF] | [B,F][B,FB]- [B,FB]3 [Gc] | d>c BA- A/G/A | %289
[M:5/8] [DB]-[DB]- [DB]3 |[M:1/8] [DF] |[M:3/4] [DF]>[EG] [DF][A,EF]- [A,EF]/[A,EG]/[A,EF] | %292
 [B,F][B,FB]- [B,FB]3 [Gc] | d>c BA- A/G/A |[M:5/8] [DB]-[DB]- [DB]3 |[M:1/8] [DF] | %296
[M:3/4] [DF]>[EG] [DF][A,EF]- [A,EF]/[A,EG]/[A,EF] | [B,F][B,FB]- [B,FB]3 [Gc] | d>c BA- A/G/A | %299
[M:5/8] [DB]-[DB]- [DB]3 |[M:1/8] [DF] |[M:3/4] [DF]>[EG] [DF][A,EF]- [A,EF]/[A,EG]/[A,EF] | %302
 [B,F][B,FB]- [B,FB]3 [Gc] | d>c BA- A/G/A |[M:5/8] [DB]-[DB]- [DB]3 |[M:1/8] [DF] | %306
[M:3/4] [DF]>[EG] [DF][A,EF]- [A,EF]/[A,EG]/[A,EF] | [B,F][B,FB]- [B,FB]3 [Gc] | d>c BA- A/G/A | %309
[M:5/8] [DB]-[DB]- [DB]3 |[M:1/8] [DF] |[M:3/4] [DF]>[EG] [DF][A,EF]- [A,EF]/[A,EG]/[A,EF] | %312
 [B,F][B,FB]- [B,FB]3 [Gc] | d>c BA- A/G/A |[M:5/8] [DB]-[DB]- [DB]3 |[M:1/8] [DF] | %316
[M:3/4] [DF]>[EG] [DF][A,EF]- [A,EF]/[A,EG]/[A,EF] | [B,F][B,FB]- [B,FB]3 [Gc] | d>c BA- A/G/A | %319
[M:5/8] [DB]-[DB]- [DB]3 |[M:1/8] [DF] |[M:3/4] [DF]>[EG] [DF][A,EF]- [A,EF]/[A,EG]/[A,EF] | %322
 [B,F][B,FB]- [B,FB]3 [Gc] | d>c BA- A/G/A |[M:5/8] [DB]-[DB]- [DB]3 |[M:1/8] [DF] | %326
[M:3/4] [DF]>[EG] [DF][A,EF]- [A,EF]/[A,EG]/[A,EF] | [B,F][B,FB]- [B,FB]3 [Gc] | d>c BA- A/G/A | %329
[M:5/8] [DB]-[DB]- [DB]3 |[M:1/8] [DF] |[M:3/4] [DF]>[EG] [DF][A,EF]- [A,EF]/[A,EG]/[A,EF] | %332
 [B,F][B,FB]- [B,FB]3 [Gc] | d>c BA- A/G/A |[M:5/8] [DB]-[DB]- [DB]3 |[M:1/8] [DF] | %336
[M:3/4] [DF]>[EG] [DF][A,EF]- [A,EF]/[A,EG]/[A,EF] | [B,F][B,FB]- [B,FB]3 [Gc] | d>c BA- A/G/A | %339
[M:5/8] [DB]-[DB]- [DB]3 |[M:1/8] [DF] |[M:3/4] [DF]>[EG] [DF][A,EF]- [A,EF]/[A,EG]/[A,EF] | %342
 [B,F][B,FB]- [B,FB]3 [Gc] | d>c BA- A/G/A |[M:5/8] [DB]-[DB]- [DB]3 |[M:1/8] [DF] | %346
[M:3/4] [DF]>[EG] [DF][A,EF]- [A,EF]/[A,EG]/[A,EF] | [B,F][B,FB]- [B,FB]3 [Gc] | d>c BA- A/G/A | %349
[M:5/8] [DB]-[DB]- [DB]3 |[M:1/8] [DF] |[M:3/4] [DF]>[EG] [DF][A,EF]- [A,EF]/[A,EG]/[A,EF] | %352
 [B,F][B,FB]- [B,FB]3 [Gc] | d>c BA- A/G/A |[M:5/8] [DB]-[DB]- [DB]3 |[M:1/8] [DF] | %356
[M:3/4] [DF]>[EG] [DF][A,EF]- [A,EF]/[A,EG]/[A,EF] | [B,F][B,FB]- [B,FB]3 [Gc] | d>c BA- A/G/A | %359
[M:5/8] [DB]-[DB]- [DB]3 |[M:1/8] [DF] |[M:3/4] [DF]>[EG] [DF][A,EF]- [A,EF]/[A,EG]/[A,EF] | %362
 [B,F][B,FB]- [B,FB]3 [Gc] | d>c BA- A/G/A |[M:5/8] [DB]-[DB]- [DB]3 |[M:1/8] [DF] | %366
[M:3/4] [DF]>[EG] [DF][A,EF]- [A,EF]/[A,EG]/[A,EF] | [B,F][B,FB]- [B,FB]3 [Gc] | d>c BA- A/G/A | %369
[M:5/8] [DB]-[DB]- [DB]3 |[M:1/8] [DF] |[M:3/4] [DF]>[EG] [DF][A,EF]- [A,EF]/[A,EG]/[A,EF] | %372
 [B,F][B,FB]- [B,FB]3 [Gc] | d>c BA- A/G/A |[M:5/8] [DB]-[DB]- [DB]3 |[M:1/8] [DF] | %376
[M:3/4] [DF]>[EG] [DF][A,EF]- [A,EF]/[A,EG]/[A,EF] | [B,F][B,FB]- [B,FB]3 [Gc] | d>c BA- A/G/A | %379
[M:5/8] [DB]-[DB]- [DB]3 |[M:1/8] [DF] |[M:3/4] [DF]>[EG] [DF][A,EF]- [A,EF]/[A,EG]/[A,EF] | %382
 [B,F][B,FB]- [B,FB]3 [Gc] | d>c BA- A/G/A |[M:5/8] [DB]-[DB]- [DB]3 |[M:1/8] [DF] | %386
[M:3/4] [DF]>[EG] [DF][A,EF]- [A,EF]/[A,EG]/[A,EF] | [B,F][B,FB]- [B,FB]3 [Gc] | d>c BA- A/G/A | %389
[M:5/8] [DB]-[DB]- [DB]3 |[M:1/8] [DF] |[M:3/4] [DF]>[EG] [DF][A,EF]- [A,EF]/[A,EG]/[A,EF] | %392
 [B,F][B,FB]- [B,FB]3 [Gc] | d>c BA- A/G/A |[M:5/8] [DB]-[DB]- [DB]3 |[M:1/8] [DF] | %396
[M:3/4] [DF]>[EG] [DF][A,EF]- [A,EF]/[A,EG]/[A,EF] | [B,F][B,FB]- [B,FB]3 [Gc] | d>c BA- A/G/A | %399
[M:5/8] [DB]-[DB]- [DB]3 |[M:1/8] [DF] |[M:3/4] [DF]>[EG] [DF][A,EF]- [A,EF]/[A,EG]/[A,EF] | %402
 [B,F][B,FB]- [B,FB]3 [Gc] | d>c BA- A/G/A |[M:5/8] [DB]-[DB]- [DB]3 |[M:1/8] [DF] | %406
[M:3/4] [DF]>[EG] [DF][A,EF]- [A,EF]/[A,EG]/[A,EF] | [B,F][B,FB]- [B,FB]3 [Gc] | d>c BA- A/G/A | %409
[M:5/8] [DB]-[DB]- [DB]3 |[M:1/8] [DF] |[M:3/4] [DF]>[EG] [DF][A,EF]- [A,EF]/[A,EG]/[A,EF] | %412
 [B,F][B,FB]- [B,FB]3 [Gc] | d>c BA- A/G/A |[M:5/8] [DB]-[DB]- [DB]3 |[M:1/8] [DF] | %416
[M:3/4] [DF]>[EG] [DF][A,EF]- [A,EF]/[A,EG]/[A,EF] | [B,F][B,FB]- [B,FB]3 [Gc] | d>c BA- A/G/A | %419
[M:5/8] [DB]-[DB]- [DB]3 |[M:1/8] [DF] |[M:3/4] [DF]>[EG] [DF][A,EF]- [A,EF]/[A,EG]/[A,EF] | %422
 [B,F][B,FB]- [B,FB]3 [Gc] | d>c BA- A/G/A |[M:5/8] [DB]-[DB]- [DB]3 |[M:1/8] [DF] | %426
[M:3/4] [DF]>[EG] [DF][A,EF]- [A,EF]/[A,EG]/[A,EF] | [B,F][B,FB]- [B,FB]3 [Gc] | d>c BA- A/G/A | %429
[M:5/8] [DB]-[DB]- [DB]3 |[M:1/8] [DF] |[M:3/4] [DF]>[EG] [DF][A,EF]- [A,EF]/[A,EG]/[A,EF] | %432
 [B,F][B,FB]- [B,FB]3 [Gc] | d>c BA- A/G/A |[M:5/8] [DB]-[DB]- [DB]3 |[M:1/8] [DF] | %436
[M:3/4] [DF]>[EG] [DF][A,EF]- [A,EF]/[A,EG]/[A,EF] | [B,F][B,FB]- [B,FB]3 [Gc] | d>c BA- A/G/A | %439
[M:5/8] [DB]-[DB]- [DB]3 |[M:1/8] [DF] |[M:3/4] [DF]>[EG] [DF][A,EF]- [A,EF]/[A,EG]/[A,EF] | %442
 [B,F][B,FB]- [B,FB]3 [Gc] | d>c BA- A/G/A |[M:5/8] [DB]-[DB]- [DB]3 |[M:1/8] [DF] | %446
[M:3/4] [DF]>[EG] [DF][A,EF]- [A,EF]/[A,EG]/[A,EF] | [B,F][B,FB]- [B,FB]3 [Gc] | d>c BA- A/G/A | %449
[M:5/8] [DB]-[DB]- [DB]3 |[M:1/8] [DF] |[M:3/4] [DF]>[EG] [DF][A,EF]- [A,EF]/[A,EG]/[A,EF] | %452
 [B,F][B,FB]- [B,FB]3 [Gc] | d>c BA- A/G/A |[M:5/8] [DB]-[DB]- [DB]3 |[M:1/8] [DF] | %456
[M:3/4] [DF]>[EG] [DF][A,EF]- [A,EF]/[A,EG]/[A,EF] | [B,F][B,FB]- [B,FB]3 [Gc] | d>c BA- A/G/A | %459
[M:5/8] [DB]-[DB]- [DB]3 |[M:1/8] [DF] |[M:3/4] [DF]>[EG] [DF][A,EF]- [A,EF]/[A,EG]/[A,EF] | %462
 [B,F][B,FB]- [B,FB]3 [Gc] | d>c BA- A/G/A |[M:5/8] [DB]-[DB]- [DB]3 |[M:1/8] [DF] | %466
[M:3/4] [DF]>[EG] [DF][A,EF]- [A,EF]/[A,EG]/[A,EF] | [B,F][B,FB]- [B,FB]3 [Gc] | d>c BA- A/G/A | %469
[M:5/8] [DB]-[DB]- [DB]3 |[M:1/8] [DF] |[M:3/4] [DF]>[EG] [DF][A,EF]- [A,EF]/[A,EG]/[A,EF] | %472
 [B,F][B,FB]- [B,FB]3 [Gc] | d>c BA- A/G/A |[M:5/8] [DB]-[DB]- [DB]3 |[M:1/8] [DF] | %476
[M:3/4] [DF]>[EG] [DF][A,EF]- [A,EF]/[A,EG]/[A,EF] | [B,F][B,FB]- [B,FB]3 [Gc] | d>c BA- A/G/A | %479
[M:5/8] [DB]-[DB]- [DB]3 |[M:1/8] [DF] |[M:3/4] [DF]>[EG] [DF][A,EF]- [A,EF]/[A,EG]/[A,EF] | %482
 [B,F][B,FB]- [B,FB]3 [Gc] | d>c BA- A/G/A |[M:5/8] [DB]-[DB]- [DB]3 |[M:1/8] [DF] | %486
[M:3/4] [DF]>[EG] [DF][A,EF]- [A,EF]/[A,EG]/[A,EF] | [B,F][B,FB]- [B,FB]3 [Gc] | d>c BA- A/G/A | %489
[M:5/8] [DB]-[DB]- [DB]3 |[M:1/8] [DF] |[M:3/4] [DF]>[EG] [DF][A,EF]- [A,EF]/[A,EG]/[A,EF] | %492
 [B,F][B,FB]- [B,FB]3 [Gc] | d>c BA- A/G/A |[M:5/8] [DB]-[DB]- [DB]3 |[M:1/8] [DF] | %496
[M:3/4] [DF]>[EG] [DF][A,EF]- [A,EF]/[A,EG]/[A,EF] | [B,F][B,FB]- [B,FB]3 [Gc] | d>c BA- A/G/A | %499
[M:5/8] [DB]-[DB]- [DB]3 |[M:1/8] [DF] |[M:3/4] [DF]>[EG] [DF][A,EF]- [A,EF]/[A,EG]/[A,EF] | %502
 [B,F][B,FB]- [B,FB]3 [Gc] | d>c BA- A/G/A |[M:5/8] [DB]-[DB]- [DB]3 |[M:1/8] [DF] | %506
[M:3/4] [DF]>[EG] [DF][A,EF]- [A,EF]/[A,EG]/[A,EF] | [B,F][B,FB]- [B,FB]3 [Gc] | d>c BA- A/G/A | %509
[M:5/8] [DB]-[DB]- [DB]3 |[M:1/8] [DF] |[M:3/4] [DF]>[EG] [DF][A,EF]- [A,EF]/[A,EG]/[A,EF] | %512
 [B,F][B,FB]- [B,FB]3 [Gc] | d>c BA- A/G/A |[M:5/8] [DB]-[DB]- [DB]3 |[M:1/8] [DF] | %516
[M:3/4] [DF]>[EG] [DF][A,EF]- [A,EF]/[A,EG]/[A,EF] | [B,F][B,FB]- [B,FB]3 [Gc] | d>c BA- A/G/A | %519
[M:5/8] [DB]-[DB]- [DB]3 |[M:1/8] [DF] |[M:3/4] [DF]>[EG] [DF][A,EF]- [A,EF]/[A,EG]/[A,EF] | %522
 [B,F][B,FB]- [B,FB]3 [Gc] | d>c BA- A/G/A |[M:5/8] [DB]-[DB]- [DB]3 |[M:1/8] [DF] | %526
[M:3/4] [DF]>[EG] [DF][A,EF]- [A,EF]/[A,EG]/[A,EF] | [B,F][B,FB]- [B,FB]3 [Gc] | d>c BA- A/G/A | %529
[M:5/8] [DB]-[DB]- [DB]3 |[M:1/8] [DF] |[M:3/4] [DF]>[EG] [DF][A,EF]- [A,EF]/[A,EG]/[A,EF] | %532
 [B,F][B,FB]- [B,FB]3 [Gc] | d>c BA- A/G/A |[M:5/8] [DB]-[DB]- [DB]3 |[M:1/8] [DF] | %536
[M:3/4] [DF]>[EG] [DF][A,EF]- [A,EF]/[A,EG]/[A,EF] | [B,F][B,FB]- [B,FB]3 [Gc] | d>c BA- A/G/A | %539
[M:5/8] [DB]-[DB]- [DB]3 |[M:1/8] [DF] |[M:3/4] [DF]>[EG] [DF][A,EF]- [A,EF]/[A,EG]/[A,EF] | %542
 [B,F][B,FB]- [B,FB]3 [Gc] | d>c BA- A/G/A |[M:5/8] [DB]-[DB]- [DB]3 |[M:1/8] [DF] | %546
[M:3/4] [DF]>[EG] [DF][A,EF]- [A,EF]/[A,EG]/[A,EF] | [B,F][B,FB]- [B,FB]3 [Gc] | d>c BA- A/G/A | %549
[M:5/8] [DB]-[DB]- [DB]3 |[M:1/8] [DF] |[M:3/4] [DF]>[EG] [DF][A,EF]- [A,EF]/[A,EG]/[A,EF] | %552
 [B,F][B,FB]- [B,FB]3 [Gc] | d>c BA- A/G/A |[M:5/8] [DB]-[DB]- [DB]3 |[M:1/8] [DF] | %556
[M:3/4] [DF]>[EG] [DF][A,EF]- [A,EF]/[A,EG]/[A,EF] | [B,F][B,FB]- [B,FB]3 [Gc] | d>c BA- A/G/A | %559
[M:5/8] [DB]-[DB]- [DB]3 |[M:1/8] [DF] |[M:3/4] [DF]>[EG] [DF][A,EF]- [A,EF]/[A,EG]/[A,EF] | %562
 [B,F][B,FB]- [B,FB]3 [Gc] | d>c BA- A/G/A |[M:5/8] [DB]-[DB]- [DB]3 |[M:1/8] [DF] | %566
[M:3/4] [DF]>[EG] [DF][A,EF]- [A,EF]/[A,EG]/[A,EF] | [B,F][B,FB]- [B,FB]3 [Gc] | d>c BA- A/G/A | %569
[M:5/8] [DB]-[DB]- [DB]3 |[M:1/8] [DF] |[M:3/4] [DF]>[EG] [DF][A,EF]- [A,EF]/[A,EG]/[A,EF] | %572
 [B,F][B,FB]- [B,FB]3 [Gc] | d>c BA- A/G/A |[M:5/8] [DB]-[DB]- [DB]3 |[M:1/8] [DF] | %576
[M:3/4] [DF]>[EG] [DF][A,EF]- [A,EF]/[A,EG]/[A,EF] | [B,F][B,FB]- [B,FB]3 [Gc] | d>c BA- A/G/A | %579
[M:5/8] [DB]-[DB]- [DB]3 |[M:1/8] [DF] |[M:3/4] [DF]>[EG] [DF][A,EF]- [A,EF]/[A,EG]/[A,EF] | %582
 [B,F][B,FB]- [B,FB]3 [Gc] | d>c BA- A/G/A |[M:5/8] [DB]-[DB]- [DB]3 |[M:1/8] [DF] | %586
[M:3/4] [DF]>[EG] [DF][A,EF]- [A,EF]/[A,EG]/[A,EF] | [B,F][B,FB]- [B,FB]3 [Gc] | d>c BA- A/G/A | %589
[M:5/8] [DB]-[DB]- [DB]3 |[M:1/8] [DF] |[M:3/4] [DF]>[EG] [DF][A,EF]- [A,EF]/[A,EG]/[A,EF] | %592
 [B,F][B,FB]- [B,FB]3 [Gc] | d>c BA- A/G/A |[M:5/8] [DB]-[DB]- [DB]3 |[M:1/8] [DF] | %596
[M:3/4] [DF]>[EG] [DF][A,EF]- [A,EF]/[A,EG]/[A,EF] | [B,F][B,FB]- [B,FB]3 [Gc] | d>c BA- A/G/A | %599
[M:5/8] [DB]-[DB]- [DB]3 |[M:1/8] [DF] |[M:3/4] [DF]>[EG] [DF][A,EF]- [A,EF]/[A,EG]/[A,EF] | %602
 [B,F][B,FB]- [B,FB]3 [Gc] | d>c BA- A/G/A |[M:5/8] [DB]-[DB]- [DB]3 |[M:1/8] [DF] | %606
[M:3/4] [DF]>[EG] [DF][A,EF]- [A,EF]/[A,EG]/[A,EF] | [B,F][B,FB]- [B,FB]3 [Gc] | d>c BA- A/G/A | %609
[M:5/8] [DB]-[DB]- [DB]3 |[M:1/8] [DF] |[M:3/4] [DF]>[EG] [DF][A,EF]- [A,EF]/[A,EG]/[A,EF] | %612
 [B,F][B,FB]- [B,FB]3 [Gc] | d>c BA- A/G/A |[M:5/8] [DB]-[DB]- [DB]3 |[M:1/8] [DF] | %616
[M:3/4] [DF]>[EG] [DF][A,EF]- [A,EF]/[A,EG]/[A,EF] | [B,F][B,FB]- [B,FB]3 [Gc] | d>c BA- A/G/A | %619
[M:5/8] [DB]-[DB]- [DB]3 |[M:1/8] [DF] |[M:3/4] [DF]>[EG] [DF][A,EF]- [A,EF]/[A,EG]/[A,EF] | %622
 [B,F][B,FB]- [B,FB]3 [Gc] | d>c BA- A/G/A |[M:5/8] [DB]-[DB]- [DB]3 |[M:1/8] [DF] | %626
[M:3/4] [DF]>[EG] [DF][A,EF]- [A,EF]/[A,EG]/[A,EF] | [B,F][B,FB]- [B,FB]3 [Gc] | d>c BA- A/G/A | %629
[M:5/8] [DB]-[DB]- [DB]3 |[M:1/8] [DF] |[M:3/4] [DF]>[EG] [DF][A,EF]- [A,EF]/[A,EG]/[A,EF] | %632
 [B,F][B,FB]- [B,FB]3 [Gc] | d>c BA- A/G/A |[M:5/8] [DB]-[DB]- [DB]3 |[M:1/8] [DF] | %636
[M:3/4] [DF]>[EG] [DF][A,EF]- [A,EF]/[A,EG]/[A,EF] | [B,F][B,FB]- [B,FB]3 [Gc] | d>c BA- A/G/A | %639
[M:5/8] [DB]-[DB]- [DB]3 |[M:1/8] [DF] |[M:3/4] [DF]>[EG] [DF][A,EF]- [A,EF]/[A,EG]/[A,EF] | %642
 [B,F][B,FB]- [B,FB]3 [Gc] | d>c BA- A/G/A |[M:5/8] [DB]-[DB]- [DB]3 |[M:1/8] [DF] | %646
[M:3/4] [DF]>[EG] [DF][A,EF]- [A,EF]/[A,EG]/[A,EF] | [B,F][B,FB]- [B,FB]3 [Gc] | d>c BA- A/G/A | %649
[M:5/8] [DB]-[DB]- [DB]3 |[M:1/8] [DF] |[M:3/4] [DF]>[EG] [DF][A,EF]- [A,EF]/[A,EG]/[A,EF] | %652
 [B,F][B,FB]- [B,FB]3 [Gc] | d>c BA- A/G/A |[M:5/8] [DB]-[DB]- [DB]3 |[M:1/8] [DF] | %656
[M:3/4] [DF]>[EG] [DF][A,EF]- [A,EF]/[A,EG]/[A,EF] | [B,F][B,FB]- [B,FB]3 [Gc] | d>c BA- A/G/A | %659
[M:5/8] [DB]-[DB]- [DB]3 |[M:1/8] [DF] |[M:3/4] [DF]>[EG] [DF][A,EF]- [A,EF]/[A,EG]/[A,EF] | %662
 [B,F][B,FB]- [B,FB]3 [Gc] | d>c BA- A/G/A |[M:5/8] [DB]-[DB]- [DB]3 |[M:1/8] [DF] | %666
[M:3/4] [DF]>[EG] [DF][A,EF]- [A,EF]/[A,EG]/[A,EF] | [B,F][B,FB]- [B,FB]3 [Gc] | d>c BA- A/G/A | %669
[M:5/8] [DB]-[DB]- [DB]3 |[M:1/8] [DF] |[M:3/4] [DF]>[EG] [DF][A,EF]- [A,EF]/[A,EG]/[A,EF] | %672
 [B,F][B,FB]- [B,FB]3 [Gc] | d>c BA- A/G/A |[M:5/8] [DB]-[DB]- [DB]3 |[M:1/8] [DF] | %676
[M:3/4] [DF]>[EG] [DF][A,EF]- [A,EF]/[A,EG]/[A,EF] | [B,F][B,FB]- [B,FB]3 [Gc] | d>c BA- A/G/A | %679
[M:5/8] [DB]-[DB]- [DB]3 |[M:1/8] [DF] |[M:3/4] [DF]>[EG] [DF][A,EF]- [A,EF]/[A,EG]/[A,EF] | %682
 [B,F][B,FB]- [B,FB]3 [Gc] | d>c BA- A/G/A |[M:5/8] [DB]-[DB]- [DB]3 |[M:1/8] [DF] | %686
[M:3/4] [DF]>[EG] [DF][A,EF]- [A,EF]/[A,EG]/[A,EF] | [B,F][B,FB]- [B,FB]3 [Gc] | d>c BA- A/G/A | %689
[M:5/8] [DB]-[DB]- [DB]3 |[M:1/8] [DF] |[M:3/4] [DF]>[EG] [DF][A,EF]- [A,EF]/[A,EG]/[A,EF] | %692
 [B,F][B,FB]- [B,FB]3 [Gc] | d>c BA- A/G/A |[M:5/8] [DB]-[DB]- [DB]3 |[M:1/8] [DF] | %696
[M:3/4] [DF]>[EG] [DF][A,EF]- [A,EF]/[A,EG]/[A,EF] | [B,F][B,FB]- [B,FB]3 [Gc] | d>c BA- A/G/A | %699
[M:5/8] [DB]-[DB]- [DB]3 |[M:1/8] [DF] |[M:3/4] [DF]>[EG] [DF][A,EF]- [A,EF]/[A,EG]/[A,EF] | %702
 [B,F][B,FB]- [B,FB]3 [Gc] | d>c BA- A/G/A |[M:5/8] [DB]-[DB]- [DB]3 |[M:1/8] [DF] | %706
[M:3/4] [DF]>[EG] [DF][A,EF]- [A,EF]/[A,EG]/[A,EF] | [B,F][B,FB]- [B,FB]3 [Gc] | d>c BA- A/G/A | %709
[M:5/8] [DB]-[DB]- [DB]3 |[M:1/8] [DF] |[M:3/4] [DF]>[EG] [DF][A,EF]- [A,EF]/[A,EG]/[A,EF] | %712
 [B,F][B,FB]- [B,FB]3 [Gc] | d>c BA- A/G/A |[M:5/8] [DB]-[DB]- [DB]3 |[M:1/8] [DF] | %716
[M:3/4] [DF]>[EG] [DF][A,EF]- [A,EF]/[A,EG]/[A,EF] | [B,F][B,FB]- [B,FB]3 [Gc] | d>c BA- A/G/A | %719
[M:5/8] [DB]-[DB]- [DB]3 |[M:1/8] [DF] |[M:3/4] [DF]>[EG] [DF][A,EF]- [A,EF]/[A,EG]/[A,EF] | %722
 [B,F][B,FB]- [B,FB]3 [Gc] | d>c BA- A/G/A |[M:5/8] [DB]-[DB]- [DB]3 |[M:1/8] [DF] | %726
[M:3/4] [DF]>[EG] [DF][A,EF]- [A,EF]/[A,EG]/[A,EF] | [B,F][B,FB]- [B,FB]3 [Gc] | d>c BA- A/G/A | %729
[M:5/8] [DB]-[DB]- [DB]3 |[M:1/8] [DF] |[M:3/4] [DF]>[EG] [DF][A,EF]- [A,EF]/[A,EG]/[A,EF] | %732
 [B,F][B,FB]- [B,FB]3 [Gc] | d>c BA- A/G/A |[M:5/8] [DB]-[DB]- [DB]3 |[M:1/8] [DF] | %736
[M:3/4] [DF]>[EG] [DF][A,EF]- [A,EF]/[A,EG]/[A,EF] | [B,F][B,FB]- [B,FB]3 [Gc] | d>c BA- A/G/A | %739
[M:5/8] [DB]-[DB]- [DB]3 |[M:1/8] [DF] |[M:3/4] [DF]>[EG] [DF][A,EF]- [A,EF]/[A,EG]/[A,EF] | %742
 [B,F][B,FB]- [B,FB]3 [Gc] | d>c BA- A/G/A |[M:5/8] [DB]-[DB]- [DB]3 |[M:1/8] [DF] | %746
[M:3/4] [DF]>[EG] [DF][A,EF]- [A,EF]/[A,EG]/[A,EF] | [B,F][B,FB]- [B,FB]3 [Gc] | d>c BA- A/G/A | %749
[M:5/8] [DB]-[DB]- [DB]3 |[M:1/8] [DF] |[M:3/4] [DF]>[EG] [DF][A,EF]- [A,EF]/[A,EG]/[A,EF] | %752
 [B,F][B,FB]- [B,FB]3 [Gc] | d>c BA- A/G/A |[M:5/8] [DB]-[DB]- [DB]3 |[M:1/8] [DF] | %756
[M:3/4] [DF]>[EG] [DF][A,EF]- [A,EF]/[A,EG]/[A,EF] | [B,F][B,FB]- [B,FB]3 [Gc] | d>c BA- A/G/A | %759
[M:5/8] [DB]-[DB]- [DB]3 |[M:1/8] [DF] |[M:3/4] [DF]>[EG] [DF][A,EF]- [A,EF]/[A,EG]/[A,EF] | %762
 [B,F][B,FB]- [B,FB]3 [Gc] | d>c BA- A/G/A |[M:5/8] [DB]-[DB]- [DB]3 |[M:1/8] [DF] | %766
[M:3/4] [DF]>[EG] [DF][A,EF]- [A,EF]/[A,EG]/[A,EF] | [B,F][B,FB]- [B,FB]3 [Gc] | d>c BA- A/G/A | %769
[M:5/8] [DB]-[DB]- [DB]3 |[M:1/8] [DF] |[M:3/4] [DF]>[EG] [DF][A,EF]- [A,EF]/[A,EG]/[A,EF] | %772
 [B,F][B,FB]- [B,FB]3 [Gc] | d>c BA- A/G/A |[M:5/8] [DB]-[DB]- [DB]3 |[M:1/8] [DF] | %776
[M:3/4] [DF]>[EG] [DF][A,EF]- [A,EF]/[A,EG]/[A,EF] | [B,F][B,FB]- [B,FB]3 [Gc] | d>c BA- A/G/A | %779
[M:5/8] [DB]-[DB]- [DB]3 |[M:1/8] [DF] |[M:3/4] [DF]>[EG] [DF][A,EF]- [A,EF]/[A,EG]/[A,EF] | %782
 [B,F][B,FB]- [B,FB]3 [Gc] | d>c BA- A/G/A |[M:5/8] [DB]-[DB]- [DB]3 |[M:1/8] [DF] | %786
[M:3/4] [DF]>[EG] [DF][A,EF]- [A,EF]/[A,EG]/[A,EF] | [B,F][B,FB]- [B,FB]3 [Gc] | d>c BA- A/G/A | %789
[M:5/8] [DB]-[DB]- [DB]3 |[M:1/8] [DF] |[M:3/4] [DF]>[EG] [DF][A,EF]- [A,EF]/[A,EG]/[A,EF] | %792
 [B,F][B,FB]- [B,FB]3 [Gc] | d>c BA- A/G/A |[M:5/8] [DB]-[DB]- [DB]3 |[M:1/8] [DF] | %796
[M:3/4] [DF]>[EG] [DF][A,EF]- [A,EF]/[A,EG]/[A,EF] | [B,F][B,FB]- [B,FB]3 [Gc] | d>c BA- A/G/A | %799
[M:5/8] [DB]-[DB]- [DB]3 |[M:1/8] [DF] |[M:3/4] [DF]>[EG] [DF][A,EF]- [A,EF]/[A,EG]/[A,EF] | %802
 [B,F][B,FB]- [B,FB]3 [Gc] | d>c BA- A/G/A |[M:5/8] [DB]-[DB]- [DB]3 |[M:1/8] [DF] | %806
[M:3/4] [DF]>[EG] [DF][A,EF]- [A,EF]/[A,EG]/[A,EF] | [B,F][B,FB]- [B,FB]3 [Gc] | d>c BA- A/G/A | %809
[M:5/8] [DB]-[DB]- [DB]3 |[M:1/8] [DF] |[M:3/4] [DF]>[EG] [DF][A,EF]- [A,EF]/[A,EG]/[A,EF] | %812
 [B,F][B,FB]- [B,FB]3 [Gc] | d>c BA- A/G/A |[M:5/8] [DB]-[DB]- [DB]3 |[M:1/8] [DF] | %816
[M:3/4] [DF]>[EG] [DF][A,EF]- [A,EF]/[A,EG]/[A,EF] | [B,F][B,FB]- [B,FB]3 [Gc] | d>c BA- A/G/A | %819
[M:5/8] [DB]-[DB]- [DB]3 |[M:1/8] [DF] |[M:3/4] [DF]>[EG] [DF][A,EF]- [A,EF]/[A,EG]/[A,EF] | %822
 [B,F][B,FB]- [B,FB]3 [Gc] | d>c BA- A/G/A |[M:5/8] [DB]-[DB]- [DB]3 |[M:1/8] [DF] | %826
[M:3/4] [DF]>[EG] [DF][A,EF]- [A,EF]/[A,EG]/[A,EF] | [B,F][B,FB]- [B,FB]3 [Gc] | d>c BA- A/G/A | %829
[M:5/8] [DB]-[DB]- [DB]3 |[M:1/8] [DF] |[M:3/4] [DF]>[EG] [DF][A,EF]- [A,EF]/[A,EG]/[A,EF] | %832
 [B,F][B,FB]- [B,FB]3 [Gc] | d>c BA- A/G/A |[M:5/8] [DB]-[DB]- [DB]3 |[M:1/8] [DF] | %836
[M:3/4] [DF]>[EG] [DF][A,EF]- [A,EF]/[A,EG]/[A,EF] | [B,F][B,FB]- [B,FB]3 [Gc] | d>c BA- A/G/A | %839
[M:5/8] [DB]-[DB]- [DB]3 |[M:1/8] [DF] |[M:3/4] [DF]>[EG] [DF][A,EF]- [A,EF]/[A,EG]/[A,EF] | %842
 [B,F][B,FB]- [B,FB]3 [Gc] | d>c BA- A/G/A |[M:5/8] [DB]-[DB]- [DB]3 |[M:1/8] [DF] | %846
[M:3/4] [DF]>[EG] [DF][A,EF]- [A,EF]/[A,EG]/[A,EF] | [B,F][B,FB]- [B,FB]3 [Gc] | d>c BA- A/G/A | %849
[M:5/8] [DB]-[DB]- [DB]3 |[M:1/8] [DF] |[M:3/4] [DF]>[EG] [DF][A,EF]- [A,EF]/[A,EG]/[A,EF] | %852
 [B,F][B,FB]- [B,FB]3 [Gc] | d>c BA- A/G/A |[M:5/8] [DB]-[DB]- [DB]3 |[M:1/8] [DF] | %856
[M:3/4] [DF]>[EG] [DF][A,EF]- [A,EF]/[A,EG]/[A,EF] | [B,F][B,FB]- [B,FB]3 [Gc] | d>c BA- A/G/A | %859
[M:5/8] [DB]-[DB]- [DB]3 |[M:1/8] [DF] |[M:3/4] [DF]>[EG] [DF][A,EF]- [A,EF]/[A,EG]/[A,EF] | %862
 [B,F][B,FB]- [B,FB]3 [Gc] | d>c BA- A/G/A |[M:5/8] [DB]-[DB]- [DB]3 |[M:1/8] [DF] | %866
[M:3/4] [DF]>[EG] [DF][A,EF]- [A,EF]/[A,EG]/[A,EF] | [B,F][B,FB]- [B,FB]3 [Gc] | d>c BA- A/G/A | %869
[M:5/8] [DB]-[DB]- [DB]3 |[M:1/8] [DF] |[M:3/4] [DF]>[EG] [DF][A,EF]- [A,EF]/[A,EG]/[A,EF] | %872
 [B,F][B,FB]- [B,FB]3 [Gc] | d>c BA- A/G/A |[M:5/8] [DB]-[DB]- [DB]3 |[M:1/8] [DF] | %876
[M:3/4] [DF]>[EG] [DF][A,EF]- [A,EF]/[A,EG]/[A,EF] | [B,F][B,FB]- [B,FB]3 [Gc] | d>c BA- A/G/A | %879
[M:5/8] [DB]-[DB]- [DB]3 |[M:1/8] [DF] |[M:3/4] [DF]>[EG] [DF][A,EF]- [A,EF]/[A,EG]/[A,EF] | %882
 [B,F][B,FB]- [B,FB]3 [Gc] | d>c BA- A/G/A |[M:5/8] [DB]-[DB]- [DB]3 |[M:1/8] [DF] | %886
[M:3/4] [DF]>[EG] [DF][A,EF]- [A,EF]/[A,EG]/[A,EF] | [B,F][B,FB]- [B,FB]3 [Gc] | d>c BA- A/G/A | %889
[M:5/8] [DB]-[DB]- [DB]3 |[M:1/8] [DF] |[M:3/4] [DF]>[EG] [DF][A,EF]- [A,EF]/[A,EG]/[A,EF] | %892
 [B,F][B,FB]- [B,FB]3 [Gc] | d>c BA- A/G/A |[M:5/8] [DB]-[DB]- [DB]3 |[M:1/8] [DF] | %896
[M:3/4] [DF]>[EG] [DF][A,EF]- [A,EF]/[A,EG]/[A,EF] | [B,F][B,FB]- [B,FB]3 [Gc] | d>c BA- A/G/A | %899
[M:5/8] [DB]-[DB]- [DB]3 |[M:1/8] [DF] |[M:3/4] [DF]>[EG] [DF][A,EF]- [A,EF]/[A,EG]/[A,EF] | %902
 [B,F][B,FB]- [B,FB]3 [Gc] | d>c BA- A/G/A |[M:5/8] [DB]-[DB]- [DB]3 |[M:1/8] [DF] | %906
[M:3/4] [DF]>[EG] [DF][A,EF]- [A,EF]/[A,EG]/[A,EF] | [B,F][B,FB]- [B,FB]3 [Gc] | d>c BA- A/G/A | %909
[M:5/8] [DB]-[DB]- [DB]3 |[M:1/8] [DF] |[M:3/4] [DF]>[EG] [DF][A,EF]- [A,EF]/[A,EG]/[A,EF] | %912
 [B,F][B,FB]- [B,FB]3 [Gc] | d>c BA- A/G/A |[M:5/8] [DB]-[DB]- [DB]3 |[M:1/8] [DF] | %916
[M:3/4] [DF]>[EG] [DF][A,EF]- [A,EF]/[A,EG]/[A,EF] | [B,F][B,FB]- [B,FB]3 [Gc] | d>c BA- A/G/A | %919
[M:5/8] [DB]-[DB]- [DB]3 |[M:1/8] [DF] |[M:3/4] [DF]>[EG] [DF][A,EF]- [A,EF]/[A,EG]/[A,EF] | %922
 [B,F][B,FB]- [B,FB]3 [Gc] | d>c BA- A/G/A |[M:5/8] [DB]-[DB]- [DB]3 |[M:1/8] [DF] | %926
[M:3/4] [DF]>[EG] [DF][A,EF]- [A,EF]/[A,EG]/[A,EF] | [B,F][B,FB]- [B,FB]3 [Gc] | d>c BA- A/G/A | %929
[M:5/8] [DB]-[DB]- [DB]3 |[M:1/8] [DF] |[M:3/4] [DF]>[EG] [DF][A,EF]- [A,EF]/[A,EG]/[A,EF] | %932
 [B,F][B,FB]- [B,FB]3 [Gc] | d>c BA- A/G/A |[M:5/8] [DB]-[DB]- [DB]3 |[M:1/8] [DF] | %936
[M:3/4] [DF]>[EG] [DF][A,EF]- [A,EF]/[A,EG]/[A,EF] | [B,F][B,FB]- [B,FB]3 [Gc] | d>c BA- A/G/A | %939
[M:5/8] [DB]-[DB]- [DB]3 |[M:1/8] [DF] |[M:3/4] [DF]>[EG] [DF][A,EF]- [A,EF]/[A,EG]/[A,EF] | %942
 [B,F][B,FB]- [B,FB]3 [Gc] | d>c BA- A/G/A |[M:5/8] [DB]-[DB]- [DB]3 |[M:1/8] [DF] | %946
[M:3/4] [DF]>[EG] [DF][A,EF]- [A,EF]/[A,EG]/[A,EF] | [B,F][B,FB]- [B,FB]3 [Gc] | d>c BA- A/G/A | %949
[M:5/8] [DB]-[DB]- [DB]3 |[M:1/8] [DF] |[M:3/4] [DF]>[EG] [DF][A,EF]- [A,EF]/[A,EG]/[A,EF] | %952
 [B,F][B,FB]- [B,FB]3 [Gc] | d>c BA- A/G/A |[M:5/8] [DB]-[DB]- [DB]3 |[M:1/8] [DF] | %956
[M:3/4] [DF]>[EG] [DF][A,EF]- [A,EF]/[A,EG]/[A,EF] | [B,F][B,FB]- [B,FB]3 [Gc] | d>c BA- A/G/A | %959
[M:5/8] [DB]-[DB]- [DB]3 |[M:1/8] [DF] |[M:3/4] [DF]>[EG] [DF][A,EF]- [A,EF]/[A,EG]/[A,EF] | %962
 [B,F][B,FB]- [B,FB]3 [Gc] | d>c BA- A/G/A |[M:5/8] [DB]-[DB]- [DB]3 |[M:1/8] [DF] | %966
[M:3/4] [DF]>[EG] [DF][A,EF]- [A,EF]/[A,EG]/[A,EF] | [B,F][B,FB]- [B,FB]3 [Gc] | d>c BA- A/G/A | %969
[M:5/8] [DB]-[DB]- [DB]3 |[M:1/8] [DF] |[M:3/4] [DF]>[EG] [DF][A,EF]- [A,EF]/[A,EG]/[A,EF] | %972
 [B,F][B,FB]- [B,FB]3 [Gc] | d>c BA- A/G/A |[M:5/8] [DB]-[DB]- [DB]3 |[M:1/8] [DF] | %976
[M:3/4] [DF]>[EG] [DF][A,EF]- [A,EF]/[A,EG]/[A,EF] | [B,F][B,FB]- [B,FB]3 [Gc] | d>c BA- A/G/A | %979
[M:5/8] [DB]-[DB]- [DB]3 |[M:1/8] [DF] |[M:3/4] [DF]>[EG] [DF][A,EF]- [A,EF]/[A,EG]/[A,EF] | %982
 [B,F][B,FB]- [B,FB]3 [Gc] | d>c BA- A/G/A |[M:5/8] [DB]-[DB]- [DB]3 |[M:1/8] [DF] | %986
[M:3/4] [DF]>[EG] [DF][A,EF]- [A,EF]/[A,EG]/[A,EF] | [B,F][B,FB]- [B,FB]3 [Gc] | d>c BA- A/G/A | %989
[M:5/8] [DB]-[DB]- [DB]3 |[M:1/8] [DF] |[M:3/4] [DF]>[EG] [DF][A,EF]- [A,EF]/[A,EG]/[A,EF] | %992
 [B,F][B,FB]- [B,FB]3 [Gc] | d>c BA- A/G/A |[M:5/8] [DB]-[DB]- [DB]3 |[M:1/8] [DF] | %996
[M:3/4] [DF]>[EG] [DF][A,EF]- [A,EF]/[A,EG]/[A,EF] | [B,F][B,FB]- [B,FB]3 [Gc] | d>c BA- A/G/A |] %999
V:2
 z3 z2 [B,,B,] | [B,,B,]>[B,,B,][B,,B,] C,>C,C, | D, D,2- D,2 [E,B,] | %3
 [F,B,F]>[F,B,E][F,B,D] [F,CE]>[F,CE][F,CE] |[M:5/8] [B,,B,]-[B,,B,]- [B,,B,]3 |[M:1/8] [B,,B,] | %6
[M:3/4] [B,,B,]>[B,,B,] [B,,B,]C,- C,/C,/C, | D,D,- D,3 [E,B,] | %8
 [F,B,F]>[F,B,E] [F,B,D][F,CE]- [F,CE]/[F,CE]/[F,CE] |[M:5/8] [B,,B,]-[B,,B,]- [B,,B,]3 | %10
[M:1/8] [B,,B,]/[B,,B,]/ |[M:3/4] [B,,B,]>[B,,B,] [B,,B,][B,,B,]- [B,,B,]/[B,,B,]/[B,,B,] | %12
 [F,D][F,C]- [F,C]3 [F,C]/[F,D]/ | [F,E]>[F,C] [F,D][F,E]- [F,E]/[F,D]/[F,E] | %14
[M:5/8] [B,,B,]-[B,,B,]- [B,,B,]3 |[M:1/8] [B,,B,] |[M:3/4] [B,,B,]>[B,,B,] [B,,B,]C,- C,/C,/C, | %17
 D,D,- D,3 [E,B,] | [F,B,F]>[F,B,E] [F,B,D][F,CE]- [F,CE]/[F,CE]/[F,CE] | %19
[M:5/8] [B,,B,]-[B,,B,]- [B,,B,]3 |[M:1/8] [B,,B,] |[M:3/4] [B,,B,]>[B,,B,] [B,,B,]C,- C,/C,/C, | %22
 D,D,- D,3 [E,B,] | [F,B,F]>[F,B,E] [F,B,D][F,CE]- [F,CE]/[F,CE]/[F,CE] | %24
[M:5/8] [B,,B,]-[B,,B,]- [B,,B,]3 |[M:1/8] [B,,B,] |[M:3/4] [B,,B,]>[B,,B,] [B,,B,]C,- C,/C,/C, | %27
 D,D,- D,3 [E,B,] | [F,B,F]>[F,B,E] [F,B,D][F,CE]- [F,CE]/[F,CE]/[F,CE] | %29
[M:5/8] [B,,B,]-[B,,B,]- [B,,B,]3 |[M:1/8] [B,,B,] |[M:3/4] [B,,B,]>[B,,B,] [B,,B,]C,- C,/C,/C, | %32
 D,D,- D,3 [E,B,] | [F,B,F]>[F,B,E] [F,B,D][F,CE]- [F,CE]/[F,CE]/[F,CE] | %34
[M:5/8] [B,,B,]-[B,,B,]- [B,,B,]3 |[M:1/8] [B,,B,] |[M:3/4] [B,,B,]>[B,,B,] [B,,B,]C,- C,/C,/C, | %37
 D,D,- D,3 [E,B,] | [F,B,F]>[F,B,E] [F,B,D][F,CE]- [F,CE]/[F,CE]/[F,CE] | %39
[M:5/8] [B,,B,]-[B,,B,]- [B,,B,]3 |[M:1/8] [B,,B,] |[M:3/4] [B,,B,]>[B,,B,] [B,,B,]C,- C,/C,/C, | %42
 D,D,- D,3 [E,B,] | [F,B,F]>[F,B,E] [F,B,D][F,CE]- [F,CE]/[F,CE]/[F,CE] | %44
[M:5/8] [B,,B,]-[B,,B,]- [B,,B,]3 |[M:1/8] [B,,B,] |[M:3/4] [B,,B,]>[B,,B,] [B,,B,]C,- C,/C,/C, | %47
 D,D,- D,3 [E,B,] | [F,B,F]>[F,B,E] [F,B,D][F,CE]- [F,CE]/[F,CE]/[F,CE] | %49
[M:5/8] [B,,B,]-[B,,B,]- [B,,B,]3 |[M:1/8] [B,,B,] |[M:3/4] [B,,B,]>[B,,B,] [B,,B,]C,- C,/C,/C, | %52
 D,D,- D,3 [E,B,] | [F,B,F]>[F,B,E] [F,B,D][F,CE]- [F,CE]/[F,CE]/[F,CE] | %54
[M:5/8] [B,,B,]-[B,,B,]- [B,,B,]3 |[M:1/8] [B,,B,] |[M:3/4] [B,,B,]>[B,,B,] [B,,B,]C,- C,/C,/C, | %57
 D,D,- D,3 [E,B,] | [F,B,F]>[F,B,E] [F,B,D][F,CE]- [F,CE]/[F,CE]/[F,CE] | %59
[M:5/8] [B,,B,]-[B,,B,]- [B,,B,]3 |[M:1/8] [B,,B,] |[M:3/4] [B,,B,]>[B,,B,] [B,,B,]C,- C,/C,/C, | %62
 D,D,- D,3 [E,B,] | [F,B,F]>[F,B,E] [F,B,D][F,CE]- [F,CE]/[F,CE]/[F,CE] | %64
[M:5/8] [B,,B,]-[B,,B,]- [B,,B,]3 |[M:1/8] [B,,B,] |[M:3/4] [B,,B,]>[B,,B,] [B,,B,]C,- C,/C,/C, | %67
 D,D,- D,3 [E,B,] | [F,B,F]>[F,B,E] [F,B,D][F,CE]- [F,CE]/[F,CE]/[F,CE] | %69
[M:5/8] [B,,B,]-[B,,B,]- [B,,B,]3 |[M:1/8] [B,,B,] |[M:3/4] [B,,B,]>[B,,B,] [B,,B,]C,- C,/C,/C, | %72
 D,D,- D,3 [E,B,] | [F,B,F]>[F,B,E] [F,B,D][F,CE]- [F,CE]/[F,CE]/[F,CE] | %74
[M:5/8] [B,,B,]-[B,,B,]- [B,,B,]3 |[M:1/8] [B,,B,] |[M:3/4] [B,,B,]>[B,,B,] [B,,B,]C,- C,/C,/C, | %77
 D,D,- D,3 [E,B,] | [F,B,F]>[F,B,E] [F,B,D][F,CE]- [F,CE]/[F,CE]/[F,CE] | %79
[M:5/8] [B,,B,]-[B,,B,]- [B,,B,]3 |[M:1/8] [B,,B,] |[M:3/4] [B,,B,]>[B,,B,] [B,,B,]C,- C,/C,/C, | %82
 D,D,- D,3 [E,B,] | [F,B,F]>[F,B,E] [F,B,D][F,CE]- [F,CE]/[F,CE]/[F,CE] | %84
[M:5/8] [B,,B,]-[B,,B,]- [B,,B,]3 |[M:1/8] [B,,B,] |[M:3/4] [B,,B,]>[B,,B,] [B,,B,]C,- C,/C,/C, | %87
 D,D,- D,3 [E,B,] | [F,B,F]>[F,B,E] [F,B,D][F,CE]- [F,CE]/[F,CE]/[F,CE] | %89
[M:5/8] [B,,B,]-[B,,B,]- [B,,B,]3 |[M:1/8] [B,,B,] |[M:3/4] [B,,B,]>[B,,B,] [B,,B,]C,- C,/C,/C, | %92
 D,D,- D,3 [E,B,] | [F,B,F]>[F,B,E] [F,B,D][F,CE]- [F,CE]/[F,CE]/[F,CE] | %94
[M:5/8] [B,,B,]-[B,,B,]- [B,,B,]3 |[M:1/8] [B,,B,] |[M:3/4] [B,,B,]>[B,,B,] [B,,B,]C,- C,/C,/C, | %97
 D,D,- D,3 [E,B,] | [F,B,F]>[F,B,E] [F,B,D][F,CE]- [F,CE]/[F,CE]/[F,CE] | %99
[M:5/8] [B,,B,]-[B,,B,]- [B,,B,]3 |[M:1/8] [B,,B,] |[M:3/4] [B,,B,]>[B,,B,] [B,,B,]C,- C,/C,/C, | %102
 D,D,- D,3 [E,B,] | [F,B,F]>[F,B,E] [F,B,D][F,CE]- [F,CE]/[F,CE]/[F,CE] | %104
[M:5/8] [B,,B,]-[B,,B,]- [B,,B,]3 |[M:1/8] [B,,B,] |[M:3/4] [B,,B,]>[B,,B,] [B,,B,]C,- C,/C,/C, | %107
 D,D,- D,3 [E,B,] | [F,B,F]>[F,B,E] [F,B,D][F,CE]- [F,CE]/[F,CE]/[F,CE] | %109
[M:5/8] [B,,B,]-[B,,B,]- [B,,B,]3 |[M:1/8] [B,,B,] |[M:3/4] [B,,B,]>[B,,B,] [B,,B,]C,- C,/C,/C, | %112
 D,D,- D,3 [E,B,] | [F,B,F]>[F,B,E] [F,B,D][F,CE]- [F,CE]/[F,CE]/[F,CE] | %114
[M:5/8] [B,,B,]-[B,,B,]- [B,,B,]3 |[M:1/8] [B,,B,] |[M:3/4] [B,,B,]>[B,,B,] [B,,B,]C,- C,/C,/C, | %117
 D,D,- D,3 [E,B,] | [F,B,F]>[F,B,E] [F,B,D][F,CE]- [F,CE]/[F,CE]/[F,CE] | %119
[M:5/8] [B,,B,]-[B,,B,]- [B,,B,]3 |[M:1/8] [B,,B,] |[M:3/4] [B,,B,]>[B,,B,] [B,,B,]C,- C,/C,/C, | %122
 D,D,- D,3 [E,B,] | [F,B,F]>[F,B,E] [F,B,D][F,CE]- [F,CE]/[F,CE]/[F,CE] | %124
[M:5/8] [B,,B,]-[B,,B,]- [B,,B,]3 |[M:1/8] [B,,B,] |[M:3/4] [B,,B,]>[B,,B,] [B,,B,]C,- C,/C,/C, | %127
 D,D,- D,3 [E,B,] | [F,B,F]>[F,B,E] [F,B,D][F,CE]- [F,CE]/[F,CE]/[F,CE] | %129
[M:5/8] [B,,B,]-[B,,B,]- [B,,B,]3 |[M:1/8] [B,,B,] |[M:3/4] [B,,B,]>[B,,B,] [B,,B,]C,- C,/C,/C, | %132
 D,D,- D,3 [E,B,] | [F,B,F]>[F,B,E] [F,B,D][F,CE]- [F,CE]/[F,CE]/[F,CE] | %134
[M:5/8] [B,,B,]-[B,,B,]- [B,,B,]3 |[M:1/8] [B,,B,] |[M:3/4] [B,,B,]>[B,,B,] [B,,B,]C,- C,/C,/C, | %137
 D,D,- D,3 [E,B,] | [F,B,F]>[F,B,E] [F,B,D][F,CE]- [F,CE]/[F,CE]/[F,CE] | %139
[M:5/8] [B,,B,]-[B,,B,]- [B,,B,]3 |[M:1/8] [B,,B,] |[M:3/4] [B,,B,]>[B,,B,] [B,,B,]C,- C,/C,/C, | %142
 D,D,- D,3 [E,B,] | [F,B,F]>[F,B,E] [F,B,D][F,CE]- [F,CE]/[F,CE]/[F,CE] | %144
[M:5/8] [B,,B,]-[B,,B,]- [B,,B,]3 |[M:1/8] [B,,B,] |[M:3/4] [B,,B,]>[B,,B,] [B,,B,]C,- C,/C,/C, | %147
 D,D,- D,3 [E,B,] | [F,B,F]>[F,B,E] [F,B,D][F,CE]- [F,CE]/[F,CE]/[F,CE] | %149
[M:5/8] [B,,B,]-[B,,B,]- [B,,B,]3 |[M:1/8] [B,,B,] |[M:3/4] [B,,B,]>[B,,B,] [B,,B,]C,- C,/C,/C, | %152
 D,D,- D,3 [E,B,] | [F,B,F]>[F,B,E] [F,B,D][F,CE]- [F,CE]/[F,CE]/[F,CE] | %154
[M:5/8] [B,,B,]-[B,,B,]- [B,,B,]3 |[M:1/8] [B,,B,] |[M:3/4] [B,,B,]>[B,,B,] [B,,B,]C,- C,/C,/C, | %157
 D,D,- D,3 [E,B,] | [F,B,F]>[F,B,E] [F,B,D][F,CE]- [F,CE]/[F,CE]/[F,CE] | %159
[M:5/8] [B,,B,]-[B,,B,]- [B,,B,]3 |[M:1/8] [B,,B,] |[M:3/4] [B,,B,]>[B,,B,] [B,,B,]C,- C,/C,/C, | %162
 D,D,- D,3 [E,B,] | [F,B,F]>[F,B,E] [F,B,D][F,CE]- [F,CE]/[F,CE]/[F,CE] | %164
[M:5/8] [B,,B,]-[B,,B,]- [B,,B,]3 |[M:1/8] [B,,B,] |[M:3/4] [B,,B,]>[B,,B,] [B,,B,]C,- C,/C,/C, | %167
 D,D,- D,3 [E,B,] | [F,B,F]>[F,B,E] [F,B,D][F,CE]- [F,CE]/[F,CE]/[F,CE] | %169
[M:5/8] [B,,B,]-[B,,B,]- [B,,B,]3 |[M:1/8] [B,,B,] |[M:3/4] [B,,B,]>[B,,B,] [B,,B,]C,- C,/C,/C, | %172
 D,D,- D,3 [E,B,] | [F,B,F]>[F,B,E] [F,B,D][F,CE]- [F,CE]/[F,CE]/[F,CE] | %174
[M:5/8] [B,,B,]-[B,,B,]- [B,,B,]3 |[M:1/8] [B,,B,] |[M:3/4] [B,,B,]>[B,,B,] [B,,B,]C,- C,/C,/C, | %177
 D,D,- D,3 [E,B,] | [F,B,F]>[F,B,E] [F,B,D][F,CE]- [F,CE]/[F,CE]/[F,CE] | %179
[M:5/8] [B,,B,]-[B,,B,]- [B,,B,]3 |[M:1/8] [B,,B,] |[M:3/4] [B,,B,]>[B,,B,] [B,,B,]C,- C,/C,/C, | %182
 D,D,- D,3 [E,B,] | [F,B,F]>[F,B,E] [F,B,D][F,CE]- [F,CE]/[F,CE]/[F,CE] | %184
[M:5/8] [B,,B,]-[B,,B,]- [B,,B,]3 |[M:1/8] [B,,B,] |[M:3/4] [B,,B,]>[B,,B,] [B,,B,]C,- C,/C,/C, | %187
 D,D,- D,3 [E,B,] | [F,B,F]>[F,B,E] [F,B,D][F,CE]- [F,CE]/[F,CE]/[F,CE] | %189
[M:5/8] [B,,B,]-[B,,B,]- [B,,B,]3 |[M:1/8] [B,,B,] |[M:3/4] [B,,B,]>[B,,B,] [B,,B,]C,- C,/C,/C, | %192
 D,D,- D,3 [E,B,] | [F,B,F]>[F,B,E] [F,B,D][F,CE]- [F,CE]/[F,CE]/[F,CE] | %194
[M:5/8] [B,,B,]-[B,,B,]- [B,,B,]3 |[M:1/8] [B,,B,] |[M:3/4] [B,,B,]>[B,,B,] [B,,B,]C,- C,/C,/C, | %197
 D,D,- D,3 [E,B,] | [F,B,F]>[F,B,E] [F,B,D][F,CE]- [F,CE]/[F,CE]/[F,CE] | %199
[M:5/8] [B,,B,]-[B,,B,]- [B,,B,]3 |[M:1/8] [B,,B,] |[M:3/4] [B,,B,]>[B,,B,] [B,,B,]C,- C,/C,/C, | %202
 D,D,- D,3 [E,B,] | [F,B,F]>[F,B,E] [F,B,D][F,CE]- [F,CE]/[F,CE]/[F,CE] | %204
[M:5/8] [B,,B,]-[B,,B,]- [B,,B,]3 |[M:1/8] [B,,B,] |[M:3/4] [B,,B,]>[B,,B,] [B,,B,]C,- C,/C,/C, | %207
 D,D,- D,3 [E,B,] | [F,B,F]>[F,B,E] [F,B,D][F,CE]- [F,CE]/[F,CE]/[F,CE] | %209
[M:5/8] [B,,B,]-[B,,B,]- [B,,B,]3 |[M:1/8] [B,,B,] |[M:3/4] [B,,B,]>[B,,B,] [B,,B,]C,- C,/C,/C, | %212
 D,D,- D,3 [E,B,] | [F,B,F]>[F,B,E] [F,B,D][F,CE]- [F,CE]/[F,CE]/[F,CE] | %214
[M:5/8] [B,,B,]-[B,,B,]- [B,,B,]3 |[M:1/8] [B,,B,] |[M:3/4] [B,,B,]>[B,,B,] [B,,B,]C,- C,/C,/C, | %217
 D,D,- D,3 [E,B,] | [F,B,F]>[F,B,E] [F,B,D][F,CE]- [F,CE]/[F,CE]/[F,CE] | %219
[M:5/8] [B,,B,]-[B,,B,]- [B,,B,]3 |[M:1/8] [B,,B,] |[M:3/4] [B,,B,]>[B,,B,] [B,,B,]C,- C,/C,/C, | %222
 D,D,- D,3 [E,B,] | [F,B,F]>[F,B,E] [F,B,D][F,CE]- [F,CE]/[F,CE]/[F,CE] | %224
[M:5/8] [B,,B,]-[B,,B,]- [B,,B,]3 |[M:1/8] [B,,B,] |[M:3/4] [B,,B,]>[B,,B,] [B,,B,]C,- C,/C,/C, | %227
 D,D,- D,3 [E,B,] | [F,B,F]>[F,B,E] [F,B,D][F,CE]- [F,CE]/[F,CE]/[F,CE] | %229
[M:5/8] [B,,B,]-[B,,B,]- [B,,B,]3 |[M:1/8] [B,,B,] |[M:3/4] [B,,B,]>[B,,B,] [B,,B,]C,- C,/C,/C, | %232
 D,D,- D,3 [E,B,] | [F,B,F]>[F,B,E] [F,B,D][F,CE]- [F,CE]/[F,CE]/[F,CE] | %234
[M:5/8] [B,,B,]-[B,,B,]- [B,,B,]3 |[M:1/8] [B,,B,] |[M:3/4] [B,,B,]>[B,,B,] [B,,B,]C,- C,/C,/C, | %237
 D,D,- D,3 [E,B,] | [F,B,F]>[F,B,E] [F,B,D][F,CE]- [F,CE]/[F,CE]/[F,CE] | %239
[M:5/8] [B,,B,]-[B,,B,]- [B,,B,]3 |[M:1/8] [B,,B,] |[M:3/4] [B,,B,]>[B,,B,] [B,,B,]C,- C,/C,/C, | %242
 D,D,- D,3 [E,B,] | [F,B,F]>[F,B,E] [F,B,D][F,CE]- [F,CE]/[F,CE]/[F,CE] | %244
[M:5/8] [B,,B,]-[B,,B,]- [B,,B,]3 |[M:1/8] [B,,B,] |[M:3/4] [B,,B,]>[B,,B,] [B,,B,]C,- C,/C,/C, | %247
 D,D,- D,3 [E,B,] | [F,B,F]>[F,B,E] [F,B,D][F,CE]- [F,CE]/[F,CE]/[F,CE] | %249
[M:5/8] [B,,B,]-[B,,B,]- [B,,B,]3 |[M:1/8] [B,,B,] |[M:3/4] [B,,B,]>[B,,B,] [B,,B,]C,- C,/C,/C, | %252
 D,D,- D,3 [E,B,] | [F,B,F]>[F,B,E] [F,B,D][F,CE]- [F,CE]/[F,CE]/[F,CE] | %254
[M:5/8] [B,,B,]-[B,,B,]- [B,,B,]3 |[M:1/8] [B,,B,] |[M:3/4] [B,,B,]>[B,,B,] [B,,B,]C,- C,/C,/C, | %257
 D,D,- D,3 [E,B,] | [F,B,F]>[F,B,E] [F,B,D][F,CE]- [F,CE]/[F,CE]/[F,CE] | %259
[M:5/8] [B,,B,]-[B,,B,]- [B,,B,]3 |[M:1/8] [B,,B,] |[M:3/4] [B,,B,]>[B,,B,] [B,,B,]C,- C,/C,/C, | %262
 D,D,- D,3 [E,B,] | [F,B,F]>[F,B,E] [F,B,D][F,CE]- [F,CE]/[F,CE]/[F,CE] | %264
[M:5/8] [B,,B,]-[B,,B,]- [B,,B,]3 |[M:1/8] [B,,B,] |[M:3/4] [B,,B,]>[B,,B,] [B,,B,]C,- C,/C,/C, | %267
 D,D,- D,3 [E,B,] | [F,B,F]>[F,B,E] [F,B,D][F,CE]- [F,CE]/[F,CE]/[F,CE] | %269
[M:5/8] [B,,B,]-[B,,B,]- [B,,B,]3 |[M:1/8] [B,,B,] |[M:3/4] [B,,B,]>[B,,B,] [B,,B,]C,- C,/C,/C, | %272
 D,D,- D,3 [E,B,] | [F,B,F]>[F,B,E] [F,B,D][F,CE]- [F,CE]/[F,CE]/[F,CE] | %274
[M:5/8] [B,,B,]-[B,,B,]- [B,,B,]3 |[M:1/8] [B,,B,] |[M:3/4] [B,,B,]>[B,,B,] [B,,B,]C,- C,/C,/C, | %277
 D,D,- D,3 [E,B,] | [F,B,F]>[F,B,E] [F,B,D][F,CE]- [F,CE]/[F,CE]/[F,CE] | %279
[M:5/8] [B,,B,]-[B,,B,]- [B,,B,]3 |[M:1/8] [B,,B,] |[M:3/4] [B,,B,]>[B,,B,] [B,,B,]C,- C,/C,/C, | %282
 D,D,- D,3 [E,B,] | [F,B,F]>[F,B,E] [F,B,D][F,CE]- [F,CE]/[F,CE]/[F,CE] | %284
[M:5/8] [B,,B,]-[B,,B,]- [B,,B,]3 |[M:1/8] [B,,B,] |[M:3/4] [B,,B,]>[B,,B,] [B,,B,]C,- C,/C,/C, | %287
 D,D,- D,3 [E,B,] | [F,B,F]>[F,B,E] [F,B,D][F,CE]- [F,CE]/[F,CE]/[F,CE] | %289
[M:5/8] [B,,B,]-[B,,B,]- [B,,B,]3 |[M:1/8] [B,,B,] |[M:3/4] [B,,B,]>[B,,B,] [B,,B,]C,- C,/C,/C, | %292
 D,D,- D,3 [E,B,] | [F,B,F]>[F,B,E] [F,B,D][F,CE]- [F,CE]/[F,CE]/[F,CE] | %294
[M:5/8] [B,,B,]-[B,,B,]- [B,,B,]3 |[M:1/8] [B,,B,] |[M:3/4] [B,,B,]>[B,,B,] [B,,B,]C,- C,/C,/C, | %297
 D,D,- D,3 [E,B,] | [F,B,F]>[F,B,E] [F,B,D][F,CE]- [F,CE]/[F,CE]/[F,CE] | %299
[M:5/8] [B,,B,]-[B,,B,]- [B,,B,]3 |[M:1/8] [B,,B,] |[M:3/4] [B,,B,]>[B,,B,] [B,,B,]C,- C,/C,/C, | %302
 D,D,- D,3 [E,B,] | [F,B,F]>[F,B,E] [F,B,D][F,CE]- [F,CE]/[F,CE]/[F,CE] | %304
[M:5/8] [B,,B,]-[B,,B,]- [B,,B,]3 |[M:1/8] [B,,B,] |[M:3/4] [B,,B,]>[B,,B,] [B,,B,]C,- C,/C,/C, | %307
 D,D,- D,3 [E,B,] | [F,B,F]>[F,B,E] [F,B,D][F,CE]- [F,CE]/[F,CE]/[F,CE] | %309
[M:5/8] [B,,B,]-[B,,B,]- [B,,B,]3 |[M:1/8] [B,,B,] |[M:3/4] [B,,B,]>[B,,B,] [B,,B,]C,- C,/C,/C, | %312
 D,D,- D,3 [E,B,] | [F,B,F]>[F,B,E] [F,B,D][F,CE]- [F,CE]/[F,CE]/[F,CE] | %314
[M:5/8] [B,,B,]-[B,,B,]- [B,,B,]3 |[M:1/8] [B,,B,] |[M:3/4] [B,,B,]>[B,,B,] [B,,B,]C,- C,/C,/C, | %317
 D,D,- D,3 [E,B,] | [F,B,F]>[F,B,E] [F,B,D][F,CE]- [F,CE]/[F,CE]/[F,CE] | %319
[M:5/8] [B,,B,]-[B,,B,]- [B,,B,]3 |[M:1/8] [B,,B,] |[M:3/4] [B,,B,]>[B,,B,] [B,,B,]C,- C,/C,/C, | %322
 D,D,- D,3 [E,B,] | [F,B,F]>[F,B,E] [F,B,D][F,CE]- [F,CE]/[F,CE]/[F,CE] | %324
[M:5/8] [B,,B,]-[B,,B,]- [B,,B,]3 |[M:1/8] [B,,B,] |[M:3/4] [B,,B,]>[B,,B,] [B,,B,]C,- C,/C,/C, | %327
 D,D,- D,3 [E,B,] | [F,B,F]>[F,B,E] [F,B,D][F,CE]- [F,CE]/[F,CE]/[F,CE] | %329
[M:5/8] [B,,B,]-[B,,B,]- [B,,B,]3 |[M:1/8] [B,,B,] |[M:3/4] [B,,B,]>[B,,B,] [B,,B,]C,- C,/C,/C, | %332
 D,D,- D,3 [E,B,] | [F,B,F]>[F,B,E] [F,B,D][F,CE]- [F,CE]/[F,CE]/[F,CE] | %334
[M:5/8] [B,,B,]-[B,,B,]- [B,,B,]3 |[M:1/8] [B,,B,] |[M:3/4] [B,,B,]>[B,,B,] [B,,B,]C,- C,/C,/C, | %337
 D,D,- D,3 [E,B,] | [F,B,F]>[F,B,E] [F,B,D][F,CE]- [F,CE]/[F,CE]/[F,CE] | %339
[M:5/8] [B,,B,]-[B,,B,]- [B,,B,]3 |[M:1/8] [B,,B,] |[M:3/4] [B,,B,]>[B,,B,] [B,,B,]C,- C,/C,/C, | %342
 D,D,- D,3 [E,B,] | [F,B,F]>[F,B,E] [F,B,D][F,CE]- [F,CE]/[F,CE]/[F,CE] | %344
[M:5/8] [B,,B,]-[B,,B,]- [B,,B,]3 |[M:1/8] [B,,B,] |[M:3/4] [B,,B,]>[B,,B,] [B,,B,]C,- C,/C,/C, | %347
 D,D,- D,3 [E,B,] | [F,B,F]>[F,B,E] [F,B,D][F,CE]- [F,CE]/[F,CE]/[F,CE] | %349
[M:5/8] [B,,B,]-[B,,B,]- [B,,B,]3 |[M:1/8] [B,,B,] |[M:3/4] [B,,B,]>[B,,B,] [B,,B,]C,- C,/C,/C, | %352
 D,D,- D,3 [E,B,] | [F,B,F]>[F,B,E] [F,B,D][F,CE]- [F,CE]/[F,CE]/[F,CE] | %354
[M:5/8] [B,,B,]-[B,,B,]- [B,,B,]3 |[M:1/8] [B,,B,] |[M:3/4] [B,,B,]>[B,,B,] [B,,B,]C,- C,/C,/C, | %357
 D,D,- D,3 [E,B,] | [F,B,F]>[F,B,E] [F,B,D][F,CE]- [F,CE]/[F,CE]/[F,CE] | %359
[M:5/8] [B,,B,]-[B,,B,]- [B,,B,]3 |[M:1/8] [B,,B,] |[M:3/4] [B,,B,]>[B,,B,] [B,,B,]C,- C,/C,/C, | %362
 D,D,- D,3 [E,B,] | [F,B,F]>[F,B,E] [F,B,D][F,CE]- [F,CE]/[F,CE]/[F,CE] | %364
[M:5/8] [B,,B,]-[B,,B,]- [B,,B,]3 |[M:1/8] [B,,B,] |[M:3/4] [B,,B,]>[B,,B,] [B,,B,]C,- C,/C,/C, | %367
 D,D,- D,3 [E,B,] | [F,B,F]>[F,B,E] [F,B,D][F,CE]- [F,CE]/[F,CE]/[F,CE] | %369
[M:5/8] [B,,B,]-[B,,B,]- [B,,B,]3 |[M:1/8] [B,,B,] |[M:3/4] [B,,B,]>[B,,B,] [B,,B,]C,- C,/C,/C, | %372
 D,D,- D,3 [E,B,] | [F,B,F]>[F,B,E] [F,B,D][F,CE]- [F,CE]/[F,CE]/[F,CE] | %374
[M:5/8] [B,,B,]-[B,,B,]- [B,,B,]3 |[M:1/8] [B,,B,] |[M:3/4] [B,,B,]>[B,,B,] [B,,B,]C,- C,/C,/C, | %377
 D,D,- D,3 [E,B,] | [F,B,F]>[F,B,E] [F,B,D][F,CE]- [F,CE]/[F,CE]/[F,CE] | %379
[M:5/8] [B,,B,]-[B,,B,]- [B,,B,]3 |[M:1/8] [B,,B,] |[M:3/4] [B,,B,]>[B,,B,] [B,,B,]C,- C,/C,/C, | %382
 D,D,- D,3 [E,B,] | [F,B,F]>[F,B,E] [F,B,D][F,CE]- [F,CE]/[F,CE]/[F,CE] | %384
[M:5/8] [B,,B,]-[B,,B,]- [B,,B,]3 |[M:1/8] [B,,B,] |[M:3/4] [B,,B,]>[B,,B,] [B,,B,]C,- C,/C,/C, | %387
 D,D,- D,3 [E,B,] | [F,B,F]>[F,B,E] [F,B,D][F,CE]- [F,CE]/[F,CE]/[F,CE] | %389
[M:5/8] [B,,B,]-[B,,B,]- [B,,B,]3 |[M:1/8] [B,,B,] |[M:3/4] [B,,B,]>[B,,B,] [B,,B,]C,- C,/C,/C, | %392
 D,D,- D,3 [E,B,] | [F,B,F]>[F,B,E] [F,B,D][F,CE]- [F,CE]/[F,CE]/[F,CE] | %394
[M:5/8] [B,,B,]-[B,,B,]- [B,,B,]3 |[M:1/8] [B,,B,] |[M:3/4] [B,,B,]>[B,,B,] [B,,B,]C,- C,/C,/C, | %397
 D,D,- D,3 [E,B,] | [F,B,F]>[F,B,E] [F,B,D][F,CE]- [F,CE]/[F,CE]/[F,CE] | %399
[M:5/8] [B,,B,]-[B,,B,]- [B,,B,]3 |[M:1/8] [B,,B,] |[M:3/4] [B,,B,]>[B,,B,] [B,,B,]C,- C,/C,/C, | %402
 D,D,- D,3 [E,B,] | [F,B,F]>[F,B,E] [F,B,D][F,CE]- [F,CE]/[F,CE]/[F,CE] | %404
[M:5/8] [B,,B,]-[B,,B,]- [B,,B,]3 |[M:1/8] [B,,B,] |[M:3/4] [B,,B,]>[B,,B,] [B,,B,]C,- C,/C,/C, | %407
 D,D,- D,3 [E,B,] | [F,B,F]>[F,B,E] [F,B,D][F,CE]- [F,CE]/[F,CE]/[F,CE] | %409
[M:5/8] [B,,B,]-[B,,B,]- [B,,B,]3 |[M:1/8] [B,,B,] |[M:3/4] [B,,B,]>[B,,B,] [B,,B,]C,- C,/C,/C, | %412
 D,D,- D,3 [E,B,] | [F,B,F]>[F,B,E] [F,B,D][F,CE]- [F,CE]/[F,CE]/[F,CE] | %414
[M:5/8] [B,,B,]-[B,,B,]- [B,,B,]3 |[M:1/8] [B,,B,] |[M:3/4] [B,,B,]>[B,,B,] [B,,B,]C,- C,/C,/C, | %417
 D,D,- D,3 [E,B,] | [F,B,F]>[F,B,E] [F,B,D][F,CE]- [F,CE]/[F,CE]/[F,CE] | %419
[M:5/8] [B,,B,]-[B,,B,]- [B,,B,]3 |[M:1/8] [B,,B,] |[M:3/4] [B,,B,]>[B,,B,] [B,,B,]C,- C,/C,/C, | %422
 D,D,- D,3 [E,B,] | [F,B,F]>[F,B,E] [F,B,D][F,CE]- [F,CE]/[F,CE]/[F,CE] | %424
[M:5/8] [B,,B,]-[B,,B,]- [B,,B,]3 |[M:1/8] [B,,B,] |[M:3/4] [B,,B,]>[B,,B,] [B,,B,]C,- C,/C,/C, | %427
 D,D,- D,3 [E,B,] | [F,B,F]>[F,B,E] [F,B,D][F,CE]- [F,CE]/[F,CE]/[F,CE] | %429
[M:5/8] [B,,B,]-[B,,B,]- [B,,B,]3 |[M:1/8] [B,,B,] |[M:3/4] [B,,B,]>[B,,B,] [B,,B,]C,- C,/C,/C, | %432
 D,D,- D,3 [E,B,] | [F,B,F]>[F,B,E] [F,B,D][F,CE]- [F,CE]/[F,CE]/[F,CE] | %434
[M:5/8] [B,,B,]-[B,,B,]- [B,,B,]3 |[M:1/8] [B,,B,] |[M:3/4] [B,,B,]>[B,,B,] [B,,B,]C,- C,/C,/C, | %437
 D,D,- D,3 [E,B,] | [F,B,F]>[F,B,E] [F,B,D][F,CE]- [F,CE]/[F,CE]/[F,CE] | %439
[M:5/8] [B,,B,]-[B,,B,]- [B,,B,]3 |[M:1/8] [B,,B,] |[M:3/4] [B,,B,]>[B,,B,] [B,,B,]C,- C,/C,/C, | %442
 D,D,- D,3 [E,B,] | [F,B,F]>[F,B,E] [F,B,D][F,CE]- [F,CE]/[F,CE]/[F,CE] | %444
[M:5/8] [B,,B,]-[B,,B,]- [B,,B,]3 |[M:1/8] [B,,B,] |[M:3/4] [B,,B,]>[B,,B,] [B,,B,]C,- C,/C,/C, | %447
 D,D,- D,3 [E,B,] | [F,B,F]>[F,B,E] [F,B,D][F,CE]- [F,CE]/[F,CE]/[F,CE] | %449
[M:5/8] [B,,B,]-[B,,B,]- [B,,B,]3 |[M:1/8] [B,,B,] |[M:3/4] [B,,B,]>[B,,B,] [B,,B,]C,- C,/C,/C, | %452
 D,D,- D,3 [E,B,] | [F,B,F]>[F,B,E] [F,B,D][F,CE]- [F,CE]/[F,CE]/[F,CE] | %454
[M:5/8] [B,,B,]-[B,,B,]- [B,,B,]3 |[M:1/8] [B,,B,] |[M:3/4] [B,,B,]>[B,,B,] [B,,B,]C,- C,/C,/C, | %457
 D,D,- D,3 [E,B,] | [F,B,F]>[F,B,E] [F,B,D][F,CE]- [F,CE]/[F,CE]/[F,CE] | %459
[M:5/8] [B,,B,]-[B,,B,]- [B,,B,]3 |[M:1/8] [B,,B,] |[M:3/4] [B,,B,]>[B,,B,] [B,,B,]C,- C,/C,/C, | %462
 D,D,- D,3 [E,B,] | [F,B,F]>[F,B,E] [F,B,D][F,CE]- [F,CE]/[F,CE]/[F,CE] | %464
[M:5/8] [B,,B,]-[B,,B,]- [B,,B,]3 |[M:1/8] [B,,B,] |[M:3/4] [B,,B,]>[B,,B,] [B,,B,]C,- C,/C,/C, | %467
 D,D,- D,3 [E,B,] | [F,B,F]>[F,B,E] [F,B,D][F,CE]- [F,CE]/[F,CE]/[F,CE] | %469
[M:5/8] [B,,B,]-[B,,B,]- [B,,B,]3 |[M:1/8] [B,,B,] |[M:3/4] [B,,B,]>[B,,B,] [B,,B,]C,- C,/C,/C, | %472
 D,D,- D,3 [E,B,] | [F,B,F]>[F,B,E] [F,B,D][F,CE]- [F,CE]/[F,CE]/[F,CE] | %474
[M:5/8] [B,,B,]-[B,,B,]- [B,,B,]3 |[M:1/8] [B,,B,] |[M:3/4] [B,,B,]>[B,,B,] [B,,B,]C,- C,/C,/C, | %477
 D,D,- D,3 [E,B,] | [F,B,F]>[F,B,E] [F,B,D][F,CE]- [F,CE]/[F,CE]/[F,CE] | %479
[M:5/8] [B,,B,]-[B,,B,]- [B,,B,]3 |[M:1/8] [B,,B,] |[M:3/4] [B,,B,]>[B,,B,] [B,,B,]C,- C,/C,/C, | %482
 D,D,- D,3 [E,B,] | [F,B,F]>[F,B,E] [F,B,D][F,CE]- [F,CE]/[F,CE]/[F,CE] | %484
[M:5/8] [B,,B,]-[B,,B,]- [B,,B,]3 |[M:1/8] [B,,B,] |[M:3/4] [B,,B,]>[B,,B,] [B,,B,]C,- C,/C,/C, | %487
 D,D,- D,3 [E,B,] | [F,B,F]>[F,B,E] [F,B,D][F,CE]- [F,CE]/[F,CE]/[F,CE] | %489
[M:5/8] [B,,B,]-[B,,B,]- [B,,B,]3 |[M:1/8] [B,,B,] |[M:3/4] [B,,B,]>[B,,B,] [B,,B,]C,- C,/C,/C, | %492
 D,D,- D,3 [E,B,] | [F,B,F]>[F,B,E] [F,B,D][F,CE]- [F,CE]/[F,CE]/[F,CE] | %494
[M:5/8] [B,,B,]-[B,,B,]- [B,,B,]3 |[M:1/8] [B,,B,] |[M:3/4] [B,,B,]>[B,,B,] [B,,B,]C,- C,/C,/C, | %497
 D,D,- D,3 [E,B,] | [F,B,F]>[F,B,E] [F,B,D][F,CE]- [F,CE]/[F,CE]/[F,CE] | %499
[M:5/8] [B,,B,]-[B,,B,]- [B,,B,]3 |[M:1/8] [B,,B,] |[M:3/4] [B,,B,]>[B,,B,] [B,,B,]C,- C,/C,/C, | %502
 D,D,- D,3 [E,B,] | [F,B,F]>[F,B,E] [F,B,D][F,CE]- [F,CE]/[F,CE]/[F,CE] | %504
[M:5/8] [B,,B,]-[B,,B,]- [B,,B,]3 |[M:1/8] [B,,B,] |[M:3/4] [B,,B,]>[B,,B,] [B,,B,]C,- C,/C,/C, | %507
 D,D,- D,3 [E,B,] | [F,B,F]>[F,B,E] [F,B,D][F,CE]- [F,CE]/[F,CE]/[F,CE] | %509
[M:5/8] [B,,B,]-[B,,B,]- [B,,B,]3 |[M:1/8] [B,,B,] |[M:3/4] [B,,B,]>[B,,B,] [B,,B,]C,- C,/C,/C, | %512
 D,D,- D,3 [E,B,] | [F,B,F]>[F,B,E] [F,B,D][F,CE]- [F,CE]/[F,CE]/[F,CE] | %514
[M:5/8] [B,,B,]-[B,,B,]- [B,,B,]3 |[M:1/8] [B,,B,] |[M:3/4] [B,,B,]>[B,,B,] [B,,B,]C,- C,/C,/C, | %517
 D,D,- D,3 [E,B,] | [F,B,F]>[F,B,E] [F,B,D][F,CE]- [F,CE]/[F,CE]/[F,CE] | %519
[M:5/8] [B,,B,]-[B,,B,]- [B,,B,]3 |[M:1/8] [B,,B,] |[M:3/4] [B,,B,]>[B,,B,] [B,,B,]C,- C,/C,/C, | %522
 D,D,- D,3 [E,B,] | [F,B,F]>[F,B,E] [F,B,D][F,CE]- [F,CE]/[F,CE]/[F,CE] | %524
[M:5/8] [B,,B,]-[B,,B,]- [B,,B,]3 |[M:1/8] [B,,B,] |[M:3/4] [B,,B,]>[B,,B,] [B,,B,]C,- C,/C,/C, | %527
 D,D,- D,3 [E,B,] | [F,B,F]>[F,B,E] [F,B,D][F,CE]- [F,CE]/[F,CE]/[F,CE] | %529
[M:5/8] [B,,B,]-[B,,B,]- [B,,B,]3 |[M:1/8] [B,,B,] |[M:3/4] [B,,B,]>[B,,B,] [B,,B,]C,- C,/C,/C, | %532
 D,D,- D,3 [E,B,] | [F,B,F]>[F,B,E] [F,B,D][F,CE]- [F,CE]/[F,CE]/[F,CE] | %534
[M:5/8] [B,,B,]-[B,,B,]- [B,,B,]3 |[M:1/8] [B,,B,] |[M:3/4] [B,,B,]>[B,,B,] [B,,B,]C,- C,/C,/C, | %537
 D,D,- D,3 [E,B,] | [F,B,F]>[F,B,E] [F,B,D][F,CE]- [F,CE]/[F,CE]/[F,CE] | %539
[M:5/8] [B,,B,]-[B,,B,]- [B,,B,]3 |[M:1/8] [B,,B,] |[M:3/4] [B,,B,]>[B,,B,] [B,,B,]C,- C,/C,/C, | %542
 D,D,- D,3 [E,B,] | [F,B,F]>[F,B,E] [F,B,D][F,CE]- [F,CE]/[F,CE]/[F,CE] | %544
[M:5/8] [B,,B,]-[B,,B,]- [B,,B,]3 |[M:1/8] [B,,B,] |[M:3/4] [B,,B,]>[B,,B,] [B,,B,]C,- C,/C,/C, | %547
 D,D,- D,3 [E,B,] | [F,B,F]>[F,B,E] [F,B,D][F,CE]- [F,CE]/[F,CE]/[F,CE] | %549
[M:5/8] [B,,B,]-[B,,B,]- [B,,B,]3 |[M:1/8] [B,,B,] |[M:3/4] [B,,B,]>[B,,B,] [B,,B,]C,- C,/C,/C, | %552
 D,D,- D,3 [E,B,] | [F,B,F]>[F,B,E] [F,B,D][F,CE]- [F,CE]/[F,CE]/[F,CE] | %554
[M:5/8] [B,,B,]-[B,,B,]- [B,,B,]3 |[M:1/8] [B,,B,] |[M:3/4] [B,,B,]>[B,,B,] [B,,B,]C,- C,/C,/C, | %557
 D,D,- D,3 [E,B,] | [F,B,F]>[F,B,E] [F,B,D][F,CE]- [F,CE]/[F,CE]/[F,CE] | %559
[M:5/8] [B,,B,]-[B,,B,]- [B,,B,]3 |[M:1/8] [B,,B,] |[M:3/4] [B,,B,]>[B,,B,] [B,,B,]C,- C,/C,/C, | %562
 D,D,- D,3 [E,B,] | [F,B,F]>[F,B,E] [F,B,D][F,CE]- [F,CE]/[F,CE]/[F,CE] | %564
[M:5/8] [B,,B,]-[B,,B,]- [B,,B,]3 |[M:1/8] [B,,B,] |[M:3/4] [B,,B,]>[B,,B,] [B,,B,]C,- C,/C,/C, | %567
 D,D,- D,3 [E,B,] | [F,B,F]>[F,B,E] [F,B,D][F,CE]- [F,CE]/[F,CE]/[F,CE] | %569
[M:5/8] [B,,B,]-[B,,B,]- [B,,B,]3 |[M:1/8] [B,,B,] |[M:3/4] [B,,B,]>[B,,B,] [B,,B,]C,- C,/C,/C, | %572
 D,D,- D,3 [E,B,] | [F,B,F]>[F,B,E] [F,B,D][F,CE]- [F,CE]/[F,CE]/[F,CE] | %574
[M:5/8] [B,,B,]-[B,,B,]- [B,,B,]3 |[M:1/8] [B,,B,] |[M:3/4] [B,,B,]>[B,,B,] [B,,B,]C,- C,/C,/C, | %577
 D,D,- D,3 [E,B,] | [F,B,F]>[F,B,E] [F,B,D][F,CE]- [F,CE]/[F,CE]/[F,CE] | %579
[M:5/8] [B,,B,]-[B,,B,]- [B,,B,]3 |[M:1/8] [B,,B,] |[M:3/4] [B,,B,]>[B,,B,] [B,,B,]C,- C,/C,/C, | %582
 D,D,- D,3 [E,B,] | [F,B,F]>[F,B,E] [F,B,D][F,CE]- [F,CE]/[F,CE]/[F,CE] | %584
[M:5/8] [B,,B,]-[B,,B,]- [B,,B,]3 |[M:1/8] [B,,B,] |[M:3/4] [B,,B,]>[B,,B,] [B,,B,]C,- C,/C,/C, | %587
 D,D,- D,3 [E,B,] | [F,B,F]>[F,B,E] [F,B,D][F,CE]- [F,CE]/[F,CE]/[F,CE] | %589
[M:5/8] [B,,B,]-[B,,B,]- [B,,B,]3 |[M:1/8] [B,,B,] |[M:3/4] [B,,B,]>[B,,B,] [B,,B,]C,- C,/C,/C, | %592
 D,D,- D,3 [E,B,] | [F,B,F]>[F,B,E] [F,B,D][F,CE]- [F,CE]/[F,CE]/[F,CE] | %594
[M:5/8] [B,,B,]-[B,,B,]- [B,,B,]3 |[M:1/8] [B,,B,] |[M:3/4] [B,,B,]>[B,,B,] [B,,B,]C,- C,/C,/C, | %597
 D,D,- D,3 [E,B,] | [F,B,F]>[F,B,E] [F,B,D][F,CE]- [F,CE]/[F,CE]/[F,CE] | %599
[M:5/8] [B,,B,]-[B,,B,]- [B,,B,]3 |[M:1/8] [B,,B,] |[M:3/4] [B,,B,]>[B,,B,] [B,,B,]C,- C,/C,/C, | %602
 D,D,- D,3 [E,B,] | [F,B,F]>[F,B,E] [F,B,D][F,CE]- [F,CE]/[F,CE]/[F,CE] | %604
[M:5/8] [B,,B,]-[B,,B,]- [B,,B,]3 |[M:1/8] [B,,B,] |[M:3/4] [B,,B,]>[B,,B,] [B,,B,]C,- C,/C,/C, | %607
 D,D,- D,3 [E,B,] | [F,B,F]>[F,B,E] [F,B,D][F,CE]- [F,CE]/[F,CE]/[F,CE] | %609
[M:5/8] [B,,B,]-[B,,B,]- [B,,B,]3 |[M:1/8] [B,,B,] |[M:3/4] [B,,B,]>[B,,B,] [B,,B,]C,- C,/C,/C, | %612
 D,D,- D,3 [E,B,] | [F,B,F]>[F,B,E] [F,B,D][F,CE]- [F,CE]/[F,CE]/[F,CE] | %614
[M:5/8] [B,,B,]-[B,,B,]- [B,,B,]3 |[M:1/8] [B,,B,] |[M:3/4] [B,,B,]>[B,,B,] [B,,B,]C,- C,/C,/C, | %617
 D,D,- D,3 [E,B,] | [F,B,F]>[F,B,E] [F,B,D][F,CE]- [F,CE]/[F,CE]/[F,CE] | %619
[M:5/8] [B,,B,]-[B,,B,]- [B,,B,]3 |[M:1/8] [B,,B,] |[M:3/4] [B,,B,]>[B,,B,] [B,,B,]C,- C,/C,/C, | %622
 D,D,- D,3 [E,B,] | [F,B,F]>[F,B,E] [F,B,D][F,CE]- [F,CE]/[F,CE]/[F,CE] | %624
[M:5/8] [B,,B,]-[B,,B,]- [B,,B,]3 |[M:1/8] [B,,B,] |[M:3/4] [B,,B,]>[B,,B,] [B,,B,]C,- C,/C,/C, | %627
 D,D,- D,3 [E,B,] | [F,B,F]>[F,B,E] [F,B,D][F,CE]- [F,CE]/[F,CE]/[F,CE] | %629
[M:5/8] [B,,B,]-[B,,B,]- [B,,B,]3 |[M:1/8] [B,,B,] |[M:3/4] [B,,B,]>[B,,B,] [B,,B,]C,- C,/C,/C, | %632
 D,D,- D,3 [E,B,] | [F,B,F]>[F,B,E] [F,B,D][F,CE]- [F,CE]/[F,CE]/[F,CE] | %634
[M:5/8] [B,,B,]-[B,,B,]- [B,,B,]3 |[M:1/8] [B,,B,] |[M:3/4] [B,,B,]>[B,,B,] [B,,B,]C,- C,/C,/C, | %637
 D,D,- D,3 [E,B,] | [F,B,F]>[F,B,E] [F,B,D][F,CE]- [F,CE]/[F,CE]/[F,CE] | %639
[M:5/8] [B,,B,]-[B,,B,]- [B,,B,]3 |[M:1/8] [B,,B,] |[M:3/4] [B,,B,]>[B,,B,] [B,,B,]C,- C,/C,/C, | %642
 D,D,- D,3 [E,B,] | [F,B,F]>[F,B,E] [F,B,D][F,CE]- [F,CE]/[F,CE]/[F,CE] | %644
[M:5/8] [B,,B,]-[B,,B,]- [B,,B,]3 |[M:1/8] [B,,B,] |[M:3/4] [B,,B,]>[B,,B,] [B,,B,]C,- C,/C,/C, | %647
 D,D,- D,3 [E,B,] | [F,B,F]>[F,B,E] [F,B,D][F,CE]- [F,CE]/[F,CE]/[F,CE] | %649
[M:5/8] [B,,B,]-[B,,B,]- [B,,B,]3 |[M:1/8] [B,,B,] |[M:3/4] [B,,B,]>[B,,B,] [B,,B,]C,- C,/C,/C, | %652
 D,D,- D,3 [E,B,] | [F,B,F]>[F,B,E] [F,B,D][F,CE]- [F,CE]/[F,CE]/[F,CE] | %654
[M:5/8] [B,,B,]-[B,,B,]- [B,,B,]3 |[M:1/8] [B,,B,] |[M:3/4] [B,,B,]>[B,,B,] [B,,B,]C,- C,/C,/C, | %657
 D,D,- D,3 [E,B,] | [F,B,F]>[F,B,E] [F,B,D][F,CE]- [F,CE]/[F,CE]/[F,CE] | %659
[M:5/8] [B,,B,]-[B,,B,]- [B,,B,]3 |[M:1/8] [B,,B,] |[M:3/4] [B,,B,]>[B,,B,] [B,,B,]C,- C,/C,/C, | %662
 D,D,- D,3 [E,B,] | [F,B,F]>[F,B,E] [F,B,D][F,CE]- [F,CE]/[F,CE]/[F,CE] | %664
[M:5/8] [B,,B,]-[B,,B,]- [B,,B,]3 |[M:1/8] [B,,B,] |[M:3/4] [B,,B,]>[B,,B,] [B,,B,]C,- C,/C,/C, | %667
 D,D,- D,3 [E,B,] | [F,B,F]>[F,B,E] [F,B,D][F,CE]- [F,CE]/[F,CE]/[F,CE] | %669
[M:5/8] [B,,B,]-[B,,B,]- [B,,B,]3 |[M:1/8] [B,,B,] |[M:3/4] [B,,B,]>[B,,B,] [B,,B,]C,- C,/C,/C, | %672
 D,D,- D,3 [E,B,] | [F,B,F]>[F,B,E] [F,B,D][F,CE]- [F,CE]/[F,CE]/[F,CE] | %674
[M:5/8] [B,,B,]-[B,,B,]- [B,,B,]3 |[M:1/8] [B,,B,] |[M:3/4] [B,,B,]>[B,,B,] [B,,B,]C,- C,/C,/C, | %677
 D,D,- D,3 [E,B,] | [F,B,F]>[F,B,E] [F,B,D][F,CE]- [F,CE]/[F,CE]/[F,CE] | %679
[M:5/8] [B,,B,]-[B,,B,]- [B,,B,]3 |[M:1/8] [B,,B,] |[M:3/4] [B,,B,]>[B,,B,] [B,,B,]C,- C,/C,/C, | %682
 D,D,- D,3 [E,B,] | [F,B,F]>[F,B,E] [F,B,D][F,CE]- [F,CE]/[F,CE]/[F,CE] | %684
[M:5/8] [B,,B,]-[B,,B,]- [B,,B,]3 |[M:1/8] [B,,B,] |[M:3/4] [B,,B,]>[B,,B,] [B,,B,]C,- C,/C,/C, | %687
 D,D,- D,3 [E,B,] | [F,B,F]>[F,B,E] [F,B,D][F,CE]- [F,CE]/[F,CE]/[F,CE] | %689
[M:5/8] [B,,B,]-[B,,B,]- [B,,B,]3 |[M:1/8] [B,,B,] |[M:3/4] [B,,B,]>[B,,B,] [B,,B,]C,- C,/C,/C, | %692
 D,D,- D,3 [E,B,] | [F,B,F]>[F,B,E] [F,B,D][F,CE]- [F,CE]/[F,CE]/[F,CE] | %694
[M:5/8] [B,,B,]-[B,,B,]- [B,,B,]3 |[M:1/8] [B,,B,] |[M:3/4] [B,,B,]>[B,,B,] [B,,B,]C,- C,/C,/C, | %697
 D,D,- D,3 [E,B,] | [F,B,F]>[F,B,E] [F,B,D][F,CE]- [F,CE]/[F,CE]/[F,CE] | %699
[M:5/8] [B,,B,]-[B,,B,]- [B,,B,]3 |[M:1/8] [B,,B,] |[M:3/4] [B,,B,]>[B,,B,] [B,,B,]C,- C,/C,/C, | %702
 D,D,- D,3 [E,B,] | [F,B,F]>[F,B,E] [F,B,D][F,CE]- [F,CE]/[F,CE]/[F,CE] | %704
[M:5/8] [B,,B,]-[B,,B,]- [B,,B,]3 |[M:1/8] [B,,B,] |[M:3/4] [B,,B,]>[B,,B,] [B,,B,]C,- C,/C,/C, | %707
 D,D,- D,3 [E,B,] | [F,B,F]>[F,B,E] [F,B,D][F,CE]- [F,CE]/[F,CE]/[F,CE] | %709
[M:5/8] [B,,B,]-[B,,B,]- [B,,B,]3 |[M:1/8] [B,,B,] |[M:3/4] [B,,B,]>[B,,B,] [B,,B,]C,- C,/C,/C, | %712
 D,D,- D,3 [E,B,] | [F,B,F]>[F,B,E] [F,B,D][F,CE]- [F,CE]/[F,CE]/[F,CE] | %714
[M:5/8] [B,,B,]-[B,,B,]- [B,,B,]3 |[M:1/8] [B,,B,] |[M:3/4] [B,,B,]>[B,,B,] [B,,B,]C,- C,/C,/C, | %717
 D,D,- D,3 [E,B,] | [F,B,F]>[F,B,E] [F,B,D][F,CE]- [F,CE]/[F,CE]/[F,CE] | %719
[M:5/8] [B,,B,]-[B,,B,]- [B,,B,]3 |[M:1/8] [B,,B,] |[M:3/4] [B,,B,]>[B,,B,] [B,,B,]C,- C,/C,/C, | %722
 D,D,- D,3 [E,B,] | [F,B,F]>[F,B,E] [F,B,D][F,CE]- [F,CE]/[F,CE]/[F,CE] | %724
[M:5/8] [B,,B,]-[B,,B,]- [B,,B,]3 |[M:1/8] [B,,B,] |[M:3/4] [B,,B,]>[B,,B,] [B,,B,]C,- C,/C,/C, | %727
 D,D,- D,3 [E,B,] | [F,B,F]>[F,B,E] [F,B,D][F,CE]- [F,CE]/[F,CE]/[F,CE] | %729
[M:5/8] [B,,B,]-[B,,B,]- [B,,B,]3 |[M:1/8] [B,,B,] |[M:3/4] [B,,B,]>[B,,B,] [B,,B,]C,- C,/C,/C, | %732
 D,D,- D,3 [E,B,] | [F,B,F]>[F,B,E] [F,B,D][F,CE]- [F,CE]/[F,CE]/[F,CE] | %734
[M:5/8] [B,,B,]-[B,,B,]- [B,,B,]3 |[M:1/8] [B,,B,] |[M:3/4] [B,,B,]>[B,,B,] [B,,B,]C,- C,/C,/C, | %737
 D,D,- D,3 [E,B,] | [F,B,F]>[F,B,E] [F,B,D][F,CE]- [F,CE]/[F,CE]/[F,CE] | %739
[M:5/8] [B,,B,]-[B,,B,]- [B,,B,]3 |[M:1/8] [B,,B,] |[M:3/4] [B,,B,]>[B,,B,] [B,,B,]C,- C,/C,/C, | %742
 D,D,- D,3 [E,B,] | [F,B,F]>[F,B,E] [F,B,D][F,CE]- [F,CE]/[F,CE]/[F,CE] | %744
[M:5/8] [B,,B,]-[B,,B,]- [B,,B,]3 |[M:1/8] [B,,B,] |[M:3/4] [B,,B,]>[B,,B,] [B,,B,]C,- C,/C,/C, | %747
 D,D,- D,3 [E,B,] | [F,B,F]>[F,B,E] [F,B,D][F,CE]- [F,CE]/[F,CE]/[F,CE] | %749
[M:5/8] [B,,B,]-[B,,B,]- [B,,B,]3 |[M:1/8] [B,,B,] |[M:3/4] [B,,B,]>[B,,B,] [B,,B,]C,- C,/C,/C, | %752
 D,D,- D,3 [E,B,] | [F,B,F]>[F,B,E] [F,B,D][F,CE]- [F,CE]/[F,CE]/[F,CE] | %754
[M:5/8] [B,,B,]-[B,,B,]- [B,,B,]3 |[M:1/8] [B,,B,] |[M:3/4] [B,,B,]>[B,,B,] [B,,B,]C,- C,/C,/C, | %757
 D,D,- D,3 [E,B,] | [F,B,F]>[F,B,E] [F,B,D][F,CE]- [F,CE]/[F,CE]/[F,CE] | %759
[M:5/8] [B,,B,]-[B,,B,]- [B,,B,]3 |[M:1/8] [B,,B,] |[M:3/4] [B,,B,]>[B,,B,] [B,,B,]C,- C,/C,/C, | %762
 D,D,- D,3 [E,B,] | [F,B,F]>[F,B,E] [F,B,D][F,CE]- [F,CE]/[F,CE]/[F,CE] | %764
[M:5/8] [B,,B,]-[B,,B,]- [B,,B,]3 |[M:1/8] [B,,B,] |[M:3/4] [B,,B,]>[B,,B,] [B,,B,]C,- C,/C,/C, | %767
 D,D,- D,3 [E,B,] | [F,B,F]>[F,B,E] [F,B,D][F,CE]- [F,CE]/[F,CE]/[F,CE] | %769
[M:5/8] [B,,B,]-[B,,B,]- [B,,B,]3 |[M:1/8] [B,,B,] |[M:3/4] [B,,B,]>[B,,B,] [B,,B,]C,- C,/C,/C, | %772
 D,D,- D,3 [E,B,] | [F,B,F]>[F,B,E] [F,B,D][F,CE]- [F,CE]/[F,CE]/[F,CE] | %774
[M:5/8] [B,,B,]-[B,,B,]- [B,,B,]3 |[M:1/8] [B,,B,] |[M:3/4] [B,,B,]>[B,,B,] [B,,B,]C,- C,/C,/C, | %777
 D,D,- D,3 [E,B,] | [F,B,F]>[F,B,E] [F,B,D][F,CE]- [F,CE]/[F,CE]/[F,CE] | %779
[M:5/8] [B,,B,]-[B,,B,]- [B,,B,]3 |[M:1/8] [B,,B,] |[M:3/4] [B,,B,]>[B,,B,] [B,,B,]C,- C,/C,/C, | %782
 D,D,- D,3 [E,B,] | [F,B,F]>[F,B,E] [F,B,D][F,CE]- [F,CE]/[F,CE]/[F,CE] | %784
[M:5/8] [B,,B,]-[B,,B,]- [B,,B,]3 |[M:1/8] [B,,B,] |[M:3/4] [B,,B,]>[B,,B,] [B,,B,]C,- C,/C,/C, | %787
 D,D,- D,3 [E,B,] | [F,B,F]>[F,B,E] [F,B,D][F,CE]- [F,CE]/[F,CE]/[F,CE] | %789
[M:5/8] [B,,B,]-[B,,B,]- [B,,B,]3 |[M:1/8] [B,,B,] |[M:3/4] [B,,B,]>[B,,B,] [B,,B,]C,- C,/C,/C, | %792
 D,D,- D,3 [E,B,] | [F,B,F]>[F,B,E] [F,B,D][F,CE]- [F,CE]/[F,CE]/[F,CE] | %794
[M:5/8] [B,,B,]-[B,,B,]- [B,,B,]3 |[M:1/8] [B,,B,] |[M:3/4] [B,,B,]>[B,,B,] [B,,B,]C,- C,/C,/C, | %797
 D,D,- D,3 [E,B,] | [F,B,F]>[F,B,E] [F,B,D][F,CE]- [F,CE]/[F,CE]/[F,CE] | %799
[M:5/8] [B,,B,]-[B,,B,]- [B,,B,]3 |[M:1/8] [B,,B,] |[M:3/4] [B,,B,]>[B,,B,] [B,,B,]C,- C,/C,/C, | %802
 D,D,- D,3 [E,B,] | [F,B,F]>[F,B,E] [F,B,D][F,CE]- [F,CE]/[F,CE]/[F,CE] | %804
[M:5/8] [B,,B,]-[B,,B,]- [B,,B,]3 |[M:1/8] [B,,B,] |[M:3/4] [B,,B,]>[B,,B,] [B,,B,]C,- C,/C,/C, | %807
 D,D,- D,3 [E,B,] | [F,B,F]>[F,B,E] [F,B,D][F,CE]- [F,CE]/[F,CE]/[F,CE] | %809
[M:5/8] [B,,B,]-[B,,B,]- [B,,B,]3 |[M:1/8] [B,,B,] |[M:3/4] [B,,B,]>[B,,B,] [B,,B,]C,- C,/C,/C, | %812
 D,D,- D,3 [E,B,] | [F,B,F]>[F,B,E] [F,B,D][F,CE]- [F,CE]/[F,CE]/[F,CE] | %814
[M:5/8] [B,,B,]-[B,,B,]- [B,,B,]3 |[M:1/8] [B,,B,] |[M:3/4] [B,,B,]>[B,,B,] [B,,B,]C,- C,/C,/C, | %817
 D,D,- D,3 [E,B,] | [F,B,F]>[F,B,E] [F,B,D][F,CE]- [F,CE]/[F,CE]/[F,CE] | %819
[M:5/8] [B,,B,]-[B,,B,]- [B,,B,]3 |[M:1/8] [B,,B,] |[M:3/4] [B,,B,]>[B,,B,] [B,,B,]C,- C,/C,/C, | %822
 D,D,- D,3 [E,B,] | [F,B,F]>[F,B,E] [F,B,D][F,CE]- [F,CE]/[F,CE]/[F,CE] | %824
[M:5/8] [B,,B,]-[B,,B,]- [B,,B,]3 |[M:1/8] [B,,B,] |[M:3/4] [B,,B,]>[B,,B,] [B,,B,]C,- C,/C,/C, | %827
 D,D,- D,3 [E,B,] | [F,B,F]>[F,B,E] [F,B,D][F,CE]- [F,CE]/[F,CE]/[F,CE] | %829
[M:5/8] [B,,B,]-[B,,B,]- [B,,B,]3 |[M:1/8] [B,,B,] |[M:3/4] [B,,B,]>[B,,B,] [B,,B,]C,- C,/C,/C, | %832
 D,D,- D,3 [E,B,] | [F,B,F]>[F,B,E] [F,B,D][F,CE]- [F,CE]/[F,CE]/[F,CE] | %834
[M:5/8] [B,,B,]-[B,,B,]- [B,,B,]3 |[M:1/8] [B,,B,] |[M:3/4] [B,,B,]>[B,,B,] [B,,B,]C,- C,/C,/C, | %837
 D,D,- D,3 [E,B,] | [F,B,F]>[F,B,E] [F,B,D][F,CE]- [F,CE]/[F,CE]/[F,CE] | %839
[M:5/8] [B,,B,]-[B,,B,]- [B,,B,]3 |[M:1/8] [B,,B,] |[M:3/4] [B,,B,]>[B,,B,] [B,,B,]C,- C,/C,/C, | %842
 D,D,- D,3 [E,B,] | [F,B,F]>[F,B,E] [F,B,D][F,CE]- [F,CE]/[F,CE]/[F,CE] | %844
[M:5/8] [B,,B,]-[B,,B,]- [B,,B,]3 |[M:1/8] [B,,B,] |[M:3/4] [B,,B,]>[B,,B,] [B,,B,]C,- C,/C,/C, | %847
 D,D,- D,3 [E,B,] | [F,B,F]>[F,B,E] [F,B,D][F,CE]- [F,CE]/[F,CE]/[F,CE] | %849
[M:5/8] [B,,B,]-[B,,B,]- [B,,B,]3 |[M:1/8] [B,,B,] |[M:3/4] [B,,B,]>[B,,B,] [B,,B,]C,- C,/C,/C, | %852
 D,D,- D,3 [E,B,] | [F,B,F]>[F,B,E] [F,B,D][F,CE]- [F,CE]/[F,CE]/[F,CE] | %854
[M:5/8] [B,,B,]-[B,,B,]- [B,,B,]3 |[M:1/8] [B,,B,] |[M:3/4] [B,,B,]>[B,,B,] [B,,B,]C,- C,/C,/C, | %857
 D,D,- D,3 [E,B,] | [F,B,F]>[F,B,E] [F,B,D][F,CE]- [F,CE]/[F,CE]/[F,CE] | %859
[M:5/8] [B,,B,]-[B,,B,]- [B,,B,]3 |[M:1/8] [B,,B,] |[M:3/4] [B,,B,]>[B,,B,] [B,,B,]C,- C,/C,/C, | %862
 D,D,- D,3 [E,B,] | [F,B,F]>[F,B,E] [F,B,D][F,CE]- [F,CE]/[F,CE]/[F,CE] | %864
[M:5/8] [B,,B,]-[B,,B,]- [B,,B,]3 |[M:1/8] [B,,B,] |[M:3/4] [B,,B,]>[B,,B,] [B,,B,]C,- C,/C,/C, | %867
 D,D,- D,3 [E,B,] | [F,B,F]>[F,B,E] [F,B,D][F,CE]- [F,CE]/[F,CE]/[F,CE] | %869
[M:5/8] [B,,B,]-[B,,B,]- [B,,B,]3 |[M:1/8] [B,,B,] |[M:3/4] [B,,B,]>[B,,B,] [B,,B,]C,- C,/C,/C, | %872
 D,D,- D,3 [E,B,] | [F,B,F]>[F,B,E] [F,B,D][F,CE]- [F,CE]/[F,CE]/[F,CE] | %874
[M:5/8] [B,,B,]-[B,,B,]- [B,,B,]3 |[M:1/8] [B,,B,] |[M:3/4] [B,,B,]>[B,,B,] [B,,B,]C,- C,/C,/C, | %877
 D,D,- D,3 [E,B,] | [F,B,F]>[F,B,E] [F,B,D][F,CE]- [F,CE]/[F,CE]/[F,CE] | %879
[M:5/8] [B,,B,]-[B,,B,]- [B,,B,]3 |[M:1/8] [B,,B,] |[M:3/4] [B,,B,]>[B,,B,] [B,,B,]C,- C,/C,/C, | %882
 D,D,- D,3 [E,B,] | [F,B,F]>[F,B,E] [F,B,D][F,CE]- [F,CE]/[F,CE]/[F,CE] | %884
[M:5/8] [B,,B,]-[B,,B,]- [B,,B,]3 |[M:1/8] [B,,B,] |[M:3/4] [B,,B,]>[B,,B,] [B,,B,]C,- C,/C,/C, | %887
 D,D,- D,3 [E,B,] | [F,B,F]>[F,B,E] [F,B,D][F,CE]- [F,CE]/[F,CE]/[F,CE] | %889
[M:5/8] [B,,B,]-[B,,B,]- [B,,B,]3 |[M:1/8] [B,,B,] |[M:3/4] [B,,B,]>[B,,B,] [B,,B,]C,- C,/C,/C, | %892
 D,D,- D,3 [E,B,] | [F,B,F]>[F,B,E] [F,B,D][F,CE]- [F,CE]/[F,CE]/[F,CE] | %894
[M:5/8] [B,,B,]-[B,,B,]- [B,,B,]3 |[M:1/8] [B,,B,] |[M:3/4] [B,,B,]>[B,,B,] [B,,B,]C,- C,/C,/C, | %897
 D,D,- D,3 [E,B,] | [F,B,F]>[F,B,E] [F,B,D][F,CE]- [F,CE]/[F,CE]/[F,CE] | %899
[M:5/8] [B,,B,]-[B,,B,]- [B,,B,]3 |[M:1/8] [B,,B,] |[M:3/4] [B,,B,]>[B,,B,] [B,,B,]C,- C,/C,/C, | %902
 D,D,- D,3 [E,B,] | [F,B,F]>[F,B,E] [F,B,D][F,CE]- [F,CE]/[F,CE]/[F,CE] | %904
[M:5/8] [B,,B,]-[B,,B,]- [B,,B,]3 |[M:1/8] [B,,B,] |[M:3/4] [B,,B,]>[B,,B,] [B,,B,]C,- C,/C,/C, | %907
 D,D,- D,3 [E,B,] | [F,B,F]>[F,B,E] [F,B,D][F,CE]- [F,CE]/[F,CE]/[F,CE] | %909
[M:5/8] [B,,B,]-[B,,B,]- [B,,B,]3 |[M:1/8] [B,,B,] |[M:3/4] [B,,B,]>[B,,B,] [B,,B,]C,- C,/C,/C, | %912
 D,D,- D,3 [E,B,] | [F,B,F]>[F,B,E] [F,B,D][F,CE]- [F,CE]/[F,CE]/[F,CE] | %914
[M:5/8] [B,,B,]-[B,,B,]- [B,,B,]3 |[M:1/8] [B,,B,] |[M:3/4] [B,,B,]>[B,,B,] [B,,B,]C,- C,/C,/C, | %917
 D,D,- D,3 [E,B,] | [F,B,F]>[F,B,E] [F,B,D][F,CE]- [F,CE]/[F,CE]/[F,CE] | %919
[M:5/8] [B,,B,]-[B,,B,]- [B,,B,]3 |[M:1/8] [B,,B,] |[M:3/4] [B,,B,]>[B,,B,] [B,,B,]C,- C,/C,/C, | %922
 D,D,- D,3 [E,B,] | [F,B,F]>[F,B,E] [F,B,D][F,CE]- [F,CE]/[F,CE]/[F,CE] | %924
[M:5/8] [B,,B,]-[B,,B,]- [B,,B,]3 |[M:1/8] [B,,B,] |[M:3/4] [B,,B,]>[B,,B,] [B,,B,]C,- C,/C,/C, | %927
 D,D,- D,3 [E,B,] | [F,B,F]>[F,B,E] [F,B,D][F,CE]- [F,CE]/[F,CE]/[F,CE] | %929
[M:5/8] [B,,B,]-[B,,B,]- [B,,B,]3 |[M:1/8] [B,,B,] |[M:3/4] [B,,B,]>[B,,B,] [B,,B,]C,- C,/C,/C, | %932
 D,D,- D,3 [E,B,] | [F,B,F]>[F,B,E] [F,B,D][F,CE]- [F,CE]/[F,CE]/[F,CE] | %934
[M:5/8] [B,,B,]-[B,,B,]- [B,,B,]3 |[M:1/8] [B,,B,] |[M:3/4] [B,,B,]>[B,,B,] [B,,B,]C,- C,/C,/C, | %937
 D,D,- D,3 [E,B,] | [F,B,F]>[F,B,E] [F,B,D][F,CE]- [F,CE]/[F,CE]/[F,CE] | %939
[M:5/8] [B,,B,]-[B,,B,]- [B,,B,]3 |[M:1/8] [B,,B,] |[M:3/4] [B,,B,]>[B,,B,] [B,,B,]C,- C,/C,/C, | %942
 D,D,- D,3 [E,B,] | [F,B,F]>[F,B,E] [F,B,D][F,CE]- [F,CE]/[F,CE]/[F,CE] | %944
[M:5/8] [B,,B,]-[B,,B,]- [B,,B,]3 |[M:1/8] [B,,B,] |[M:3/4] [B,,B,]>[B,,B,] [B,,B,]C,- C,/C,/C, | %947
 D,D,- D,3 [E,B,] | [F,B,F]>[F,B,E] [F,B,D][F,CE]- [F,CE]/[F,CE]/[F,CE] | %949
[M:5/8] [B,,B,]-[B,,B,]- [B,,B,]3 |[M:1/8] [B,,B,] |[M:3/4] [B,,B,]>[B,,B,] [B,,B,]C,- C,/C,/C, | %952
 D,D,- D,3 [E,B,] | [F,B,F]>[F,B,E] [F,B,D][F,CE]- [F,CE]/[F,CE]/[F,CE] | %954
[M:5/8] [B,,B,]-[B,,B,]- [B,,B,]3 |[M:1/8] [B,,B,] |[M:3/4] [B,,B,]>[B,,B,] [B,,B,]C,- C,/C,/C, | %957
 D,D,- D,3 [E,B,] | [F,B,F]>[F,B,E] [F,B,D][F,CE]- [F,CE]/[F,CE]/[F,CE] | %959
[M:5/8] [B,,B,]-[B,,B,]- [B,,B,]3 |[M:1/8] [B,,B,] |[M:3/4] [B,,B,]>[B,,B,] [B,,B,]C,- C,/C,/C, | %962
 D,D,- D,3 [E,B,] | [F,B,F]>[F,B,E] [F,B,D][F,CE]- [F,CE]/[F,CE]/[F,CE] | %964
[M:5/8] [B,,B,]-[B,,B,]- [B,,B,]3 |[M:1/8] [B,,B,] |[M:3/4] [B,,B,]>[B,,B,] [B,,B,]C,- C,/C,/C, | %967
 D,D,- D,3 [E,B,] | [F,B,F]>[F,B,E] [F,B,D][F,CE]- [F,CE]/[F,CE]/[F,CE] | %969
[M:5/8] [B,,B,]-[B,,B,]- [B,,B,]3 |[M:1/8] [B,,B,] |[M:3/4] [B,,B,]>[B,,B,] [B,,B,]C,- C,/C,/C, | %972
 D,D,- D,3 [E,B,] | [F,B,F]>[F,B,E] [F,B,D][F,CE]- [F,CE]/[F,CE]/[F,CE] | %974
[M:5/8] [B,,B,]-[B,,B,]- [B,,B,]3 |[M:1/8] [B,,B,] |[M:3/4] [B,,B,]>[B,,B,] [B,,B,]C,- C,/C,/C, | %977
 D,D,- D,3 [E,B,] | [F,B,F]>[F,B,E] [F,B,D][F,CE]- [F,CE]/[F,CE]/[F,CE] | %979
[M:5/8] [B,,B,]-[B,,B,]- [B,,B,]3 |[M:1/8] [B,,B,] |[M:3/4] [B,,B,]>[B,,B,] [B,,B,]C,- C,/C,/C, | %982
 D,D,- D,3 [E,B,] | [F,B,F]>[F,B,E] [F,B,D][F,CE]- [F,CE]/[F,CE]/[F,CE] | %984
[M:5/8] [B,,B,]-[B,,B,]- [B,,B,]3 |[M:1/8] [B,,B,] |[M:3/4] [B,,B,]>[B,,B,] [B,,B,]C,- C,/C,/C, | %987
 D,D,- D,3 [E,B,] | [F,B,F]>[F,B,E] [F,B,D][F,CE]- [F,CE]/[F,CE]/[F,CE] | %989
[M:5/8] [B,,B,]-[B,,B,]- [B,,B,]3 |[M:1/8] [B,,B,] |[M:3/4] [B,,B,]>[B,,B,] [B,,B,]C,- C,/C,/C, | %992
 D,D,- D,3 [E,B,] | [F,B,F]>[F,B,E] [F,B,D][F,CE]- [F,CE]/[F,CE]/[F,CE] | %994
[M:5/8] [B,,B,]-[B,,B,]- [B,,B,]3 |[M:1/8] [B,,B,] |[M:3/4] [B,,B,]>[B,,B,] [B,,B,]C,- C,/C,/C, | %997
 D,D,- D,3 [E,B,] | [F,B,F]>[F,B,E] [F,B,D][F,CE]- [F,CE]/[F,CE]/[F,CE] |] %999

